;FLAVOR:Marlin
;TIME:11557
;Filament used: 10.6297m
;Layer height: 0.16
;MINX:72.401
;MINY:56.308
;MINZ:0.24
;MAXX:227.6
;MAXY:143.692
;MAXZ:8.03
;Generated with Cura_SteamEngine 5.2.1
M140 S60
M105
M190 S60
M82 ;absolute extrusion mode
M190 S60 ;bed temperature line
M109 S200 ;temperature line
G21 ;metric values
G90 ;absolute positioning
M82 ;set extruder to absolute mode
M107;start with the fan off
G28 X0 Y0 ;move X/Y to min endstops
G28 Z0 ;move Z to min endstops
G1 Z15.0 F100 ;move the platform down 15mm
G92 E0 ;zero the extruded length
F200 E3;extrude 3mm of feed stock
G92 E0 ;zero the extruded length again
G1 F100
G1 Z0.0 F100
M117 Printing... ;LCD Message
G92 E0
G92 E0
G1 F2700 E-4
;LAYER_COUNT:44
;LAYER:-6
M107
G0 F6000 X74.818 Y62.86 Z0.24
;TYPE:SUPPORT-INTERFACE
G1 F2700 E0
G1 F1350 X74.23 Y63.838 E0.09109
G1 X73.783 Y64.705 E0.16896
G1 X73.397 Y65.613 E0.24771
G1 X73.022 Y66.698 E0.33935
G1 X72.736 Y67.81 E0.431
G1 X72.557 Y68.775 E0.50935
G1 X72.448 Y69.767 E0.58901
G1 X72.401 Y70.914 E0.68065
G1 X72.401 Y89.231 E2.14279
G1 X72.417 Y90.341 E2.2314
G1 X72.401 Y90.808 E2.2687
G1 X72.401 Y109.131 E3.73132
G1 X72.417 Y110.241 E3.81994
G1 X72.401 Y110.708 E3.85724
G1 X72.401 Y129.439 E5.35243
G1 X72.489 Y130.699 E5.45325
G1 X72.633 Y131.668 E5.53145
G1 X72.861 Y132.714 E5.61691
G1 X73.182 Y133.807 E5.70784
G1 X73.593 Y134.865 E5.79844
G1 X74.021 Y135.778 E5.87893
G1 X74.584 Y136.767 E5.96977
G1 X75.124 Y137.584 E6.04795
G1 X75.778 Y138.434 E6.13356
G1 X76.556 Y139.289 E6.22583
G1 X77.205 Y139.914 E6.29776
G1 X78.077 Y140.647 E6.38869
G1 X78.964 Y141.283 E6.47581
G1 X79.93 Y141.863 E6.56576
G1 X80.8 Y142.31 E6.64383
G1 X81.785 Y142.73 E6.72931
G1 X82.796 Y143.073 E6.81453
G1 X83.903 Y143.357 E6.90576
G1 X84.869 Y143.535 E6.98417
G1 X86.007 Y143.656 E7.07552
G1 X86.991 Y143.692 E7.15412
G1 X213.346 Y143.692 E17.24032
G1 X214.603 Y143.604 E17.3409
G1 X215.578 Y143.46 E17.41958
G1 X216.703 Y143.214 E17.5115
G1 X217.711 Y142.911 E17.59552
G1 X218.788 Y142.493 E17.68774
G1 X219.609 Y142.107 E17.76016
G1 X220.539 Y141.592 E17.84502
G1 X221.487 Y140.969 E17.93557
G1 X222.356 Y140.301 E18.02306
G1 X223.196 Y139.537 E18.1137
G1 X223.823 Y138.888 E18.18573
G1 X224.553 Y138.019 E18.27633
G1 X225.191 Y137.127 E18.36387
G1 X225.77 Y136.163 E18.45363
G1 X226.222 Y135.283 E18.5326
G1 X226.644 Y134.29 E18.61873
G1 X226.98 Y133.294 E18.70264
G1 X227.264 Y132.19 E18.79363
G1 X227.427 Y131.308 E18.86523
G1 X227.552 Y130.234 E18.95154
G1 X227.6 Y129.084 E19.04342
G1 X227.6 Y111.018 E20.48552
G1 X227.583 Y109.647 E20.59497
G1 X227.599 Y109.238 E20.62765
G1 X227.599 Y90.866 E22.09418
G1 X227.583 Y89.748 E22.18343
G1 X227.599 Y89.338 E22.21618
G1 X227.599 Y70.561 E23.71504
G1 X227.511 Y69.304 E23.81563
G1 X227.367 Y68.329 E23.8943
G1 X227.122 Y67.21 E23.98574
G1 X226.784 Y66.106 E24.07791
G1 X226.4 Y65.117 E24.16259
G1 X225.983 Y64.231 E24.24076
G1 X225.416 Y63.233 E24.33238
G1 X224.876 Y62.417 E24.41049
G1 X224.215 Y61.558 E24.49701
G1 X223.505 Y60.768 E24.5818
G1 X222.795 Y60.084 E24.6605
G1 X221.923 Y59.351 E24.75143
G1 X221.041 Y58.722 E24.8379
G1 X220.069 Y58.137 E24.92846
G1 X219.202 Y57.69 E25.00632
G1 X218.294 Y57.304 E25.08508
G1 X217.209 Y56.929 E25.17672
G1 X216.097 Y56.643 E25.26837
G1 X215.132 Y56.464 E25.34672
G1 X214.14 Y56.355 E25.42638
G1 X213.01 Y56.309 E25.51666
G1 X206.655 Y56.308 E26.02394
G1 X205.394 Y56.396 E26.12484
G1 X204.425 Y56.54 E26.20304
G1 X203.38 Y56.768 E26.28842
G1 X202.285 Y57.089 E26.37951
G1 X201.212 Y57.507 E26.47143
G1 X200.391 Y57.893 E26.54385
G1 X199.392 Y58.447 E26.63503
G1 X198.508 Y59.034 E26.71974
G1 X197.721 Y59.64 E26.79902
G1 X196.985 Y60.256 E26.87564
G1 X196.392 Y60.636 E26.93186
G1 X195.786 Y60.922 E26.98535
G1 X195.126 Y61.139 E27.04081
G1 X194.467 Y61.264 E27.09435
G1 X193.811 Y61.307 E27.14683
G1 X181.78 Y61.307 E28.10719
G1 X181.089 Y61.324 E28.16237
G1 X180.049 Y61.406 E28.24564
G1 X179.496 Y61.487 E28.29026
G1 X178.675 Y61.539 E28.35592
G1 X177.958 Y61.483 E28.41333
G1 X177.771 Y61.456 E28.42841
G1 X176.859 Y61.355 E28.50166
G1 X175.725 Y61.308 E28.59226
G1 X166.28 Y61.308 E29.3462
G1 X165.589 Y61.324 E29.40137
G1 X164.549 Y61.406 E29.48465
G1 X163.996 Y61.487 E29.52926
G1 X163.175 Y61.539 E29.59493
G1 X162.458 Y61.483 E29.65234
G1 X162.271 Y61.456 E29.66742
G1 X161.359 Y61.355 E29.74066
G1 X160.225 Y61.309 E29.83126
G1 X140.28 Y61.308 E31.42335
G1 X139.589 Y61.324 E31.47853
G1 X138.549 Y61.406 E31.5618
G1 X137.996 Y61.487 E31.60642
G1 X137.175 Y61.539 E31.67208
G1 X136.458 Y61.483 E31.72949
G1 X136.271 Y61.456 E31.74457
G1 X135.359 Y61.355 E31.81782
G1 X134.225 Y61.308 E31.90842
G1 X124.78 Y61.308 E32.66236
G1 X124.089 Y61.324 E32.71753
G1 X123.049 Y61.406 E32.80081
G1 X122.496 Y61.487 E32.84542
G1 X121.675 Y61.539 E32.91109
G1 X120.96 Y61.483 E32.96834
G1 X120.771 Y61.456 E32.98358
G1 X119.857 Y61.355 E33.05698
G1 X118.723 Y61.308 E33.14758
G1 X105.869 Y61.307 E34.17364
G1 X105.026 Y61.173 E34.24178
G1 X104.36 Y60.975 E34.29724
G1 X103.745 Y60.705 E34.35085
G1 X103.156 Y60.351 E34.40571
G1 X102.75 Y60.042 E34.44644
G1 X101.924 Y59.352 E34.53235
G1 X101.048 Y58.726 E34.61829
G1 X100.07 Y58.137 E34.70943
G1 X99.19 Y57.685 E34.7884
G1 X98.205 Y57.267 E34.87381
G1 X97.201 Y56.927 E34.95843
G1 X96.097 Y56.643 E35.04942
G1 X95.215 Y56.48 E35.12102
G1 X94.141 Y56.355 E35.20733
G1 X93.009 Y56.309 E35.29776
G1 X86.655 Y56.308 E35.80497
G1 X85.395 Y56.396 E35.90579
G1 X84.423 Y56.54 E35.98423
G1 X83.303 Y56.785 E36.07574
G1 X82.199 Y57.123 E36.16791
G1 X81.212 Y57.507 E36.25245
G1 X80.324 Y57.924 E36.33076
G1 X79.326 Y58.491 E36.42238
G1 X78.507 Y59.033 E36.50078
G1 X77.646 Y59.696 E36.58752
G1 X76.804 Y60.461 E36.67833
G1 X76.177 Y61.112 E36.75048
G1 X75.445 Y61.983 E36.8413
G1 X74.818 Y62.86 E36.92736
G0 F6000 X74.867 Y63.553
G1 F1350 X154.605 Y143.291 E45.92887
G0 F6000 X152.342 Y143.291
G1 F1350 X74.078 Y65.027 E54.76399
G0 F6000 X73.454 Y66.666
G1 F1350 X150.079 Y143.291 E63.41408
G0 F6000 X147.817 Y143.291
G1 F1350 X73.015 Y68.49 E71.85832
G0 F6000 X72.815 Y70.552
G1 F1350 X145.554 Y143.291 E80.06973
G0 F6000 X143.291 Y143.291
G1 F1350 X72.8 Y72.8 E88.02736
G0 F6000 X72.8 Y75.062
G1 F1350 X141.028 Y143.291 E95.72958
G0 F6000 X138.766 Y143.291
G1 F1350 X72.8 Y77.325 E103.1764
G0 F6000 X72.8 Y79.588
G1 F1350 X136.503 Y143.291 E110.36774
G0 F6000 X134.24 Y143.291
G1 F1350 X72.8 Y81.851 E117.30362
G0 F6000 X72.8 Y84.113
G1 F1350 X131.977 Y143.291 E123.98409
G0 F6000 X129.715 Y143.291
G1 F1350 X72.8 Y86.376 E130.40914
G0 F6000 X72.8 Y88.639
G1 F1350 X127.451 Y143.29 E136.57862
G0 F6000 X125.189 Y143.29
G1 F1350 X72.8 Y90.902 E142.49269
G0 F6000 X72.8 Y93.165
G1 F1350 X122.926 Y143.29 E148.15129
G0 F6000 X120.663 Y143.29
G1 F1350 X72.8 Y95.428 E153.55442
G0 F6000 X72.8 Y97.691
G1 F1350 X118.4 Y143.29 E158.70209
G0 F6000 X116.138 Y143.29
G1 F1350 X72.8 Y99.953 E163.5944
G0 F6000 X72.8 Y102.216
G1 F1350 X113.875 Y143.29 E168.23124
G0 F6000 X111.612 Y143.29
G1 F1350 X72.8 Y104.479 E172.61262
G0 F6000 X72.8 Y106.742
G1 F1350 X109.349 Y143.29 E176.73853
G0 F6000 X107.087 Y143.29
G1 F1350 X72.8 Y109.004 E180.60909
G0 F6000 X72.8 Y111.266
G1 F1350 X104.824 Y143.29 E184.22423
G0 F6000 X102.561 Y143.29
G1 F1350 X72.8 Y113.529 E187.58391
G0 F6000 X72.8 Y115.792
G1 F1350 X100.298 Y143.29 E190.68812
G0 F6000 X98.036 Y143.29
G1 F1350 X72.8 Y118.055 E193.53692
G0 F6000 X72.799 Y120.317
G1 F1350 X95.773 Y143.29 E196.13037
G0 F6000 X93.51 Y143.29
G1 F1350 X72.799 Y122.579 E198.46841
G0 F6000 X72.799 Y124.842
G1 F1350 X91.247 Y143.29 E200.55098
G0 F6000 X88.985 Y143.29
G1 F1350 X72.799 Y127.105 E202.37814
G0 F6000 X72.799 Y129.368
G1 F1350 X86.711 Y143.28 E203.94864
G0 F6000 X84.166 Y142.998
G1 F1350 X73.099 Y131.931 E205.19798
G0 F6000 X74.269 Y135.363
G1 F1350 X80.727 Y141.821 E205.92702
G0 F6000 X156.868 Y143.291
G1 F1350 X75.779 Y62.203 E215.08099
G0 F6000 X76.839 Y60.999
G1 F1350 X159.13 Y143.291 E224.37076
G0 F6000 X161.393 Y143.291
G1 F1350 X78.017 Y59.915 E233.78297
G0 F6000 X79.331 Y58.967
G1 F1350 X163.656 Y143.291 E243.30224
G0 F6000 X165.919 Y143.291
G1 F1350 X80.779 Y58.152 E252.91353
G0 F6000 X82.377 Y57.487
G1 F1350 X168.181 Y143.291 E262.59982
G0 F6000 X170.444 Y143.291
G1 F1350 X84.16 Y57.007 E272.34031
G0 F6000 X86.159 Y56.743
G1 F1350 X172.708 Y143.292 E282.11071
G0 F6000 X174.97 Y143.292
G1 F1350 X88.386 Y56.708 E291.88506
G0 F6000 X90.649 Y56.708
G1 F1350 X177.233 Y143.292 E301.65941
G0 F6000 X179.496 Y143.292
G1 F1350 X92.912 Y56.708 E311.43376
G0 F6000 X95.385 Y56.919
G1 F1350 X181.758 Y143.292 E321.18429
G0 F6000 X184.021 Y143.292
G1 F1350 X98.597 Y57.868 E330.82769
G0 F6000 X104.393 Y61.4
G1 F1350 X186.284 Y143.292 E340.07231
G0 F6000 X188.547 Y143.292
G1 F1350 X106.962 Y61.707 E349.28233
G0 F6000 X109.225 Y61.707
G1 F1350 X190.809 Y143.292 E358.49229
G0 F6000 X193.072 Y143.292
G1 F1350 X111.488 Y61.707 E367.70225
G0 F6000 X113.75 Y61.707
G1 F1350 X195.335 Y143.292 E376.91227
G0 F6000 X197.598 Y143.292
G1 F1350 X116.013 Y61.707 E386.12229
G0 F6000 X118.276 Y61.707
G1 F1350 X199.86 Y143.292 E395.33226
G0 F6000 X202.123 Y143.292
G1 F1350 X120.679 Y61.848 E404.52636
G0 F6000 X122.923 Y61.829
G1 F1350 X204.386 Y143.292 E413.72261
G0 F6000 X206.649 Y143.292
G1 F1350 X125.064 Y61.707 E422.93263
G0 F6000 X127.327 Y61.707
G1 F1350 X208.911 Y143.292 E432.14259
G0 F6000 X211.174 Y143.292
G1 F1350 X129.59 Y61.707 E441.35255
G0 F6000 X131.852 Y61.707
G1 F1350 X213.429 Y143.284 E450.56167
G0 F6000 X215.477 Y143.069
G1 F1350 X134.115 Y61.707 E459.74652
G0 F6000 X136.565 Y61.895
G1 F1350 X217.289 Y142.619 E468.85934
G0 F6000 X218.92 Y141.987
G1 F1350 X138.727 Y61.794 E477.91222
G0 F6000 X140.904 Y61.708
G1 F1350 X220.399 Y141.203 E486.8863
G0 F6000 X221.733 Y140.274
G1 F1350 X143.167 Y61.708 E495.75551
G0 F6000 X145.429 Y61.708
G1 F1350 X222.943 Y139.222 E504.50596
G0 F6000 X224.018 Y138.034
G1 F1350 X147.692 Y61.708 E513.1223
G0 F6000 X149.955 Y61.708
G1 F1350 X224.968 Y136.721 E521.59041
G0 F6000 X225.779 Y135.269
G1 F1350 X152.218 Y61.709 E529.89456
G0 F6000 X154.481 Y61.709
G1 F1350 X226.433 Y133.661 E538.01712
G0 F6000 X226.914 Y131.878
G1 F1350 X156.744 Y61.709 E545.93846
G0 F6000 X159.007 Y61.709
G1 F1350 X227.166 Y129.868 E553.63284
G0 F6000 X227.199 Y127.639
G1 F1350 X161.314 Y61.753 E561.07056
G0 F6000 X163.726 Y61.902
G1 F1350 X227.199 Y125.376 E568.236
G0 F6000 X227.199 Y123.113
G1 F1350 X165.805 Y61.719 E575.16669
G0 F6000 X168.056 Y61.707
G1 F1350 X227.199 Y120.85 E581.84326
G0 F6000 X227.199 Y118.588
G1 F1350 X170.319 Y61.707 E588.26442
G0 F6000 X172.582 Y61.707
G1 F1350 X227.199 Y116.325 E594.43012
G0 F6000 X227.199 Y114.062
G1 F1350 X174.844 Y61.707 E600.3404
G0 F6000 X177.194 Y61.794
G1 F1350 X227.199 Y111.799 E605.9854
G0 F6000 X227.187 Y109.524
G1 F1350 X179.547 Y61.884 E611.36341
G0 F6000 X181.636 Y61.711
G1 F1350 X227.198 Y107.273 E616.50685
G0 F6000 X227.198 Y105.01
G1 F1350 X183.895 Y61.707 E621.39526
G0 F6000 X186.157 Y61.707
G1 F1350 X227.198 Y102.747 E626.02827
G0 F6000 X227.198 Y100.484
G1 F1350 X188.419 Y61.706 E630.40592
G0 F6000 X190.682 Y61.706
G1 F1350 X227.198 Y98.222 E634.52816
G0 F6000 X227.198 Y95.959
G1 F1350 X192.945 Y61.706 E638.39494
G0 F6000 X195.06 Y61.558
G1 F1350 X227.198 Y93.696 E642.02295
G0 F6000 X227.198 Y91.433
G1 F1350 X196.685 Y60.921 E645.46747
G0 F6000 X197.975 Y59.948
G1 F1350 X227.198 Y89.171 E648.76641
G0 F6000 X227.198 Y86.908
G1 F1350 X199.286 Y58.996 E651.91736
G0 F6000 X200.728 Y58.175
G1 F1350 X227.198 Y84.645 E654.90552
G0 F6000 X227.198 Y82.382
G1 F1350 X202.32 Y57.504 E657.71397
G0 F6000 X204.099 Y57.021
G1 F1350 X227.198 Y80.12 E660.32158
G0 F6000 X227.198 Y77.857
G1 F1350 X206.089 Y56.748 E662.70455
G0 F6000 X208.312 Y56.708
G1 F1350 X227.198 Y75.594 E664.83656
G0 F6000 X227.198 Y73.331
G1 F1350 X210.575 Y56.709 E666.71305
G0 F6000 X212.838 Y56.709
G1 F1350 X227.198 Y71.069 E668.33413
G0 F6000 X227.003 Y68.611
G1 F1350 X215.292 Y56.9 E669.65617
G0 F6000 X218.467 Y57.813
M104 S200
G1 F1350 X226.096 Y65.442 E670.5174
G0 F600 X226.096 Y65.442 Z0.48
G0 F6000 X222.141 Y139.955
;TIME_ELAPSED:382.217564
;LAYER:-5
;TYPE:SUPPORT
G1 F1350 X222.922 Y139.246 E670.6016
G1 X223.518 Y138.627 E670.67019
G1 X224.085 Y137.952 E670.74056
G1 X221.875 Y140.162 E670.99004
G1 X221.274 Y140.632 E671.05095
G1 X220.469 Y141.166 E671.12806
G1 X219.5 Y141.715 E671.21696
G1 X218.637 Y142.122 E671.29312
G1 X218.415 Y142.209 E671.31216
G1 X226.157 Y134.467 E672.18614
G1 X226.604 Y133.157 E672.29663
G1 X226.793 Y132.416 E672.35768
G1 X216.318 Y142.892 E673.54024
G1 X215.647 Y143.042 E673.59512
G1 X214.592 Y143.203 E673.68031
G1 X227.094 Y130.701 E675.09165
G1 X227.163 Y130.056 E675.14343
G1 X227.194 Y129.187 E675.21284
G1 X213.088 Y143.293 E676.80525
G1 X211.674 Y143.293 E676.91812
G1 X227.199 Y127.768 E678.67071
G1 X227.199 Y126.354 E678.78359
G1 X210.26 Y143.293 E680.69581
G1 X208.846 Y143.293 E680.80868
G1 X227.199 Y124.94 E682.88052
G1 X227.199 Y123.525 E682.99348
G1 X207.431 Y143.293 E685.22506
G1 X206.017 Y143.293 E685.33793
G1 X227.199 Y122.111 E687.72914
G1 X227.199 Y120.697 E687.84201
G1 X204.603 Y143.293 E690.39284
G1 X203.189 Y143.293 E690.50571
G1 X227.199 Y119.283 E693.21617
G1 X227.199 Y117.869 E693.32904
G1 X201.775 Y143.293 E696.19912
G1 X200.36 Y143.293 E696.31207
G1 X227.199 Y116.454 E699.34189
G1 X227.199 Y115.04 E699.45476
G1 X198.946 Y143.293 E702.6442
G1 X197.532 Y143.293 E702.75708
G1 X227.199 Y113.626 E706.10614
G1 X227.199 Y112.212 E706.21901
G1 X196.118 Y143.293 E709.72771
G1 X194.703 Y143.293 E709.84066
G1 X227.199 Y110.797 E713.50909
G1 X227.178 Y109.404 E713.6203
G1 X193.289 Y143.293 E717.44598
G1 X191.875 Y143.293 E717.55885
G1 X227.198 Y107.97 E721.54642
G1 X227.198 Y106.556 E721.65929
G1 X190.461 Y143.293 E725.80648
G1 X189.047 Y143.293 E725.91935
G1 X227.198 Y105.141 E730.22622
G1 X227.198 Y103.727 E730.33909
G1 X187.632 Y143.293 E734.80564
G1 X186.218 Y143.293 E734.91852
G1 X227.198 Y102.313 E739.54469
G1 X227.198 Y100.899 E739.65756
G1 X184.804 Y143.293 E744.44336
G1 X183.39 Y143.293 E744.55624
G1 X227.198 Y99.484 E749.50172
G1 X227.198 Y98.07 E749.61459
G1 X181.976 Y143.293 E754.7197
G1 X180.561 Y143.293 E754.83265
G1 X227.198 Y96.656 E760.09744
G1 X227.198 Y95.242 E760.21031
G1 X179.147 Y143.293 E765.63472
G1 X177.733 Y143.293 E765.74759
G1 X227.198 Y93.828 E771.33163
G1 X227.198 Y92.413 E771.44458
G1 X176.319 Y143.293 E777.1883
G1 X174.904 Y143.293 E777.30125
G1 X227.198 Y90.999 E783.20465
G1 X227.18 Y89.603 E783.31609
G1 X173.49 Y143.293 E789.37708
G1 X172.076 Y143.293 E789.48995
G1 X227.198 Y88.171 E795.7126
G1 X227.198 Y86.757 E795.82547
G1 X170.662 Y143.293 E802.20774
G1 X169.248 Y143.293 E802.32062
G1 X227.198 Y85.342 E808.86257
G1 X227.198 Y83.928 E808.97544
G1 X167.833 Y143.293 E815.67708
G1 X166.419 Y143.293 E815.78995
G1 X227.198 Y82.514 E822.65121
G1 X227.198 Y81.1 E822.76408
G1 X165.005 Y143.293 E829.78496
G1 X163.591 Y143.293 E829.89783
G1 X227.198 Y79.685 E837.0784
G1 X227.198 Y78.271 E837.19127
G1 X162.177 Y143.293 E844.53146
G1 X160.762 Y143.293 E844.64441
G1 X227.198 Y76.857 E852.14428
G1 X227.198 Y75.443 E852.25715
G1 X159.348 Y143.293 E859.91664
G1 X157.934 Y143.293 E860.02952
G1 X227.198 Y74.029 E867.84863
G1 X227.198 Y72.614 E867.96159
G1 X156.52 Y143.293 E875.94039
G1 X155.105 Y143.293 E876.05334
G1 X227.198 Y71.2 E884.19182
G1 X227.199 Y70.593 E884.24027
G1 X227.146 Y69.838 E884.30069
G1 X153.691 Y143.293 E892.59292
G1 X152.277 Y143.293 E892.70579
G1 X227.013 Y68.556 E901.1427
G1 X226.756 Y67.4 E901.23723
G1 X150.863 Y143.293 E909.80468
G1 X149.449 Y143.292 E909.91755
G1 X226.431 Y66.31 E918.60795
G1 X226.037 Y65.29 E918.69523
G1 X148.035 Y143.292 E927.50077
G1 X146.621 Y143.292 E927.61364
G1 X225.58 Y64.333 E936.52722
G1 X225.067 Y63.431 E936.61005
G1 X145.207 Y143.292 E945.62539
G1 X143.792 Y143.292 E945.73834
G1 X224.5 Y62.584 E954.84936
G1 X223.88 Y61.79 E954.92978
G1 X142.378 Y143.292 E964.13043
G1 X140.964 Y143.292 E964.2433
G1 X223.213 Y61.043 E973.52828
G1 X222.491 Y60.35 E973.60816
G1 X139.55 Y143.292 E982.97131
G1 X138.136 Y143.292 E983.08419
