;FLAVOR:Marlin
;TIME:8763
;Filament used: 8.13737m
;Layer height: 0.16
;MINX:87.228
;MINY:24.942
;MINZ:0.24
;MAXX:150.592
;MAXY:125.042
;MAXZ:56.03
;Generated with Cura_SteamEngine 5.2.1
M140 S60
M105
M190 S60
M82 ;absolute extrusion mode
M190 S60 ;bed temperature line
M109 S200 ;temperature line
G21 ;metric values
G90 ;absolute positioning
M82 ;set extruder to absolute mode
M107;start with the fan off
G28 X0 Y0 ;move X/Y to min endstops
G28 Z0 ;move Z to min endstops
G1 Z15.0 F100 ;move the platform down 15mm
G92 E0 ;zero the extruded length
F200 E3;extrude 3mm of feed stock
G92 E0 ;zero the extruded length again
G1 F100
G1 Z0.0 F100
M117 Printing... ;LCD Message
G92 E0
G92 E0
G1 F2700 E-4
;LAYER_COUNT:344
;LAYER:-6
M107
G0 F6000 X87.848 Y35.334 Z0.24
;TYPE:SUPPORT-INTERFACE
G1 F2700 E0
G1 F1350 X87.563 Y36.444 E0.09148
G1 X87.4 Y37.325 E0.163
G1 X87.275 Y38.401 E0.24947
G1 X87.228 Y39.55 E0.34126
G1 X87.228 Y69.888 E2.76297
G1 X87.316 Y71.145 E2.86356
G1 X87.46 Y72.119 E2.94215
G1 X87.688 Y73.163 E3.02745
G1 X87.832 Y73.659 E3.06868
G1 X88.012 Y74.514 E3.13842
G1 X88.056 Y75.19 E3.1925
G1 X88.012 Y75.894 E3.24881
G1 X87.882 Y76.565 E3.30336
G1 X87.683 Y77.345 E3.36762
G1 X87.505 Y78.312 E3.44611
G1 X87.384 Y79.45 E3.53746
G1 X87.347 Y80.451 E3.61742
G1 X87.348 Y110.791 E6.03929
G1 X87.436 Y112.046 E6.13971
G1 X87.58 Y113.021 E6.21839
G1 X87.826 Y114.146 E6.31031
G1 X88.128 Y115.154 E6.39431
G1 X88.54 Y116.215 E6.48516
G1 X88.933 Y117.052 E6.55897
G1 X89.448 Y117.982 E6.64383
G1 X90.07 Y118.93 E6.73434
G1 X90.735 Y119.794 E6.82137
G1 X91.503 Y120.639 E6.91252
G1 X92.152 Y121.266 E6.98456
G1 X93.023 Y121.998 E7.07537
G1 X93.9 Y122.625 E7.16143
G1 X94.877 Y123.213 E7.25246
G1 X95.757 Y123.665 E7.33142
G1 X96.742 Y124.083 E7.41684
G1 X97.746 Y124.423 E7.50145
G1 X98.85 Y124.707 E7.59245
G1 X99.732 Y124.87 E7.66405
G1 X100.806 Y124.995 E7.75036
G1 X101.939 Y125.042 E7.84087
G1 X132.293 Y125.042 E10.26386
G1 X133.552 Y124.954 E10.36461
G1 X134.524 Y124.81 E10.44304
G1 X135.644 Y124.565 E10.53456
G1 X136.748 Y124.227 E10.62672
G1 X137.735 Y123.843 E10.71126
G1 X138.623 Y123.426 E10.78957
G1 X139.621 Y122.859 E10.8812
G1 X140.44 Y122.317 E10.95959
G1 X141.301 Y121.654 E11.04634
G1 X142.143 Y120.889 E11.13715
G1 X142.77 Y120.238 E11.2093
G1 X143.502 Y119.367 E11.30012
G1 X144.129 Y118.49 E11.38617
G1 X144.717 Y117.512 E11.47726
G1 X145.164 Y116.645 E11.55513
G1 X145.55 Y115.737 E11.63389
G1 X145.925 Y114.652 E11.72552
G1 X146.211 Y113.54 E11.81718
G1 X146.39 Y112.575 E11.89552
G1 X146.499 Y111.583 E11.97518
G1 X146.547 Y110.432 E12.06714
G1 X146.548 Y110.016 E12.10035
G1 X146.619 Y109.164 E12.16859
G1 X146.779 Y108.475 E12.22506
G1 X147.023 Y107.836 E12.27966
G1 X147.334 Y107.24 E12.33332
G1 X147.767 Y106.531 E12.39963
G1 X148.288 Y105.534 E12.48943
G1 X148.675 Y104.621 E12.56859
G1 X149.048 Y103.54 E12.65987
G1 X149.297 Y102.59 E12.73826
G1 X149.413 Y102.006 E12.78579
G1 X149.641 Y101.175 E12.85458
G1 X149.905 Y100.448 E12.91632
G1 X150.2 Y99.363 E13.00607
G1 X150.399 Y98.392 E13.08519
G1 X150.524 Y97.41 E13.16421
G1 X150.592 Y96.27 E13.25537
G1 X150.583 Y95.742 E13.29753
G1 X150.574 Y95.287 E13.33385
G1 X150.475 Y94.148 E13.42512
G1 X150.314 Y93.176 E13.50376
G1 X150.048 Y92.05 E13.59612
G1 X149.722 Y91.035 E13.68122
G1 X149.292 Y89.986 E13.77172
G1 X148.812 Y89.023 E13.85761
G1 X148.321 Y88.183 E13.93527
G1 X147.766 Y87.376 E14.01345
G1 X147.612 Y87.17 E14.03399
G1 X147.227 Y86.575 E14.09056
G1 X146.93 Y85.947 E14.14601
G1 X146.718 Y85.304 E14.20005
G1 X146.59 Y84.634 E14.2545
G1 X146.547 Y83.976 E14.30714
G1 X146.546 Y80.095 E14.61694
G1 X146.458 Y78.838 E14.71752
G1 X146.314 Y77.866 E14.79596
G1 X146.086 Y76.821 E14.88134
G1 X145.942 Y76.325 E14.92257
G1 X145.762 Y75.47 E14.99231
G1 X145.718 Y74.73 E15.05149
G1 X145.762 Y74.092 E15.10254
G1 X145.898 Y73.393 E15.15938
G1 X146.091 Y72.639 E15.22151
G1 X146.27 Y71.673 E15.29993
G1 X146.379 Y70.681 E15.37959
G1 X146.427 Y69.53 E15.47155
G1 X146.427 Y65.724 E15.77536
G1 X146.473 Y65.047 E15.82953
G1 X146.605 Y64.373 E15.88435
G1 X146.828 Y63.711 E15.94011
G1 X147.129 Y63.089 E15.99527
G1 X147.495 Y62.525 E16.04894
G1 X147.748 Y62.175 E16.08341
G1 X148.224 Y61.424 E16.15439
G1 X148.771 Y60.423 E16.24545
G1 X149.211 Y59.434 E16.33185
G1 X149.578 Y58.423 E16.41771
G1 X149.872 Y57.34 E16.50729
G1 X150.071 Y56.369 E16.58641
G1 X150.196 Y55.387 E16.66543
G1 X150.264 Y54.247 E16.75659
G1 X150.246 Y53.264 E16.83507
G1 X150.147 Y52.125 E16.92633
G1 X149.986 Y51.151 E17.00513
G1 X149.74 Y50.11 E17.09052
G1 X149.635 Y49.758 E17.11984
G1 X149.443 Y48.931 E17.18761
G1 X149.318 Y48.069 E17.25714
G1 X149.074 Y46.955 E17.34817
G1 X148.769 Y45.937 E17.433
G1 X148.353 Y44.87 E17.52442
G1 X147.967 Y44.049 E17.59684
G1 X147.449 Y43.115 E17.68209
G1 X147.106 Y42.558 E17.73431
G1 X146.814 Y41.942 E17.78873
G1 X146.594 Y41.274 E17.84487
G1 X146.471 Y40.623 E17.89775
G1 X146.427 Y39.96 E17.95079
G1 X146.419 Y39.091 E18.02016
G1 X146.338 Y37.933 E18.11282
G1 X146.194 Y36.964 E18.19102
G1 X145.948 Y35.838 E18.28302
G1 X145.643 Y34.82 E18.36785
G1 X145.227 Y33.753 E18.45927
G1 X144.841 Y32.932 E18.53169
G1 X144.326 Y32.002 E18.61655
G1 X143.705 Y31.056 E18.70688
G1 X143.035 Y30.185 E18.7946
G1 X142.271 Y29.345 E18.88523
G1 X141.622 Y28.718 E18.95727
G1 X140.753 Y27.988 E19.04786
G1 X139.875 Y27.359 E19.13408
G1 X138.897 Y26.771 E19.22517
G1 X138.017 Y26.319 E19.30414
G1 X137.032 Y25.901 E19.38955
G1 X136.028 Y25.561 E19.47417
G1 X134.924 Y25.277 E19.56516
G1 X134.042 Y25.114 E19.63676
G1 X132.968 Y24.989 E19.72307
G1 X131.836 Y24.943 E19.81351
G1 X101.481 Y24.942 E22.23657
G1 X100.221 Y25.03 E22.3374
G1 X99.252 Y25.174 E22.4156
G1 X98.206 Y25.402 E22.50105
G1 X97.117 Y25.721 E22.59163
G1 X96.039 Y26.141 E22.68399
G1 X95.218 Y26.527 E22.7564
G1 X94.288 Y27.042 E22.84126
G1 X93.337 Y27.666 E22.93206
G1 X92.479 Y28.326 E23.01847
G1 X91.631 Y29.097 E23.10995
G1 X91.004 Y29.747 E23.18204
G1 X90.273 Y30.616 E23.27269
G1 X89.64 Y31.501 E23.35955
G1 X89.057 Y32.471 E23.44988
G1 X88.607 Y33.346 E23.52843
G1 X88.188 Y34.331 E23.61387
G1 X87.848 Y35.334 E23.69841
G0 F6000 X88.079 Y36.036
G1 F1350 X150.044 Y98.001 E30.69355
G0 F6000 X149.647 Y99.867
G1 F1350 X87.729 Y37.949 E37.68339
G0 F6000 X87.626 Y40.109
G1 F1350 X149.111 Y101.593 E44.62429
G0 F6000 X148.667 Y103.412
G1 F1350 X87.626 Y42.371 E51.51513
G0 F6000 X87.626 Y44.634
G1 F1350 X148.053 Y105.061 E58.33665
G0 F6000 X147.283 Y106.554
G1 F1350 X87.626 Y46.897 E65.07125
G0 F6000 X87.626 Y49.16
G1 F1350 X146.515 Y108.048 E71.71909
G0 F6000 X146.151 Y109.948
G1 F1350 X87.626 Y51.422 E78.32596
G0 F6000 X87.626 Y53.685
G1 F1350 X146.04 Y112.099 E84.92023
G0 F6000 X145.679 Y114.001
G1 F1350 X87.626 Y55.947 E91.47382
G0 F6000 X87.626 Y58.21
G1 F1350 X145.125 Y115.71 E97.96486
G0 F6000 X144.401 Y117.248
G1 F1350 X87.626 Y60.473 E104.37411
G0 F6000 X87.626 Y62.735
G1 F1350 X143.529 Y118.639 E110.68498
G0 F6000 X142.529 Y119.901
G1 F1350 X87.626 Y64.998 E116.8829
G0 F6000 X87.626 Y67.261
G1 F1350 X141.393 Y121.028 E122.95259
G0 F6000 X140.137 Y122.035
G1 F1350 X87.626 Y69.524 E128.88048
G0 F6000 X87.847 Y72.008
G1 F1350 X138.738 Y122.899 E134.6255
G0 F6000 X137.198 Y123.622
G1 F1350 X88.431 Y74.855 E140.13074
G0 F6000 X88.209 Y76.895
G1 F1350 X135.5 Y124.186 E145.46936
G0 F6000 X133.593 Y124.542
G1 F1350 X87.853 Y78.802 E150.63288
G0 F6000 X87.746 Y80.958
G1 F1350 X131.43 Y124.642 E155.56431
G0 F6000 X129.167 Y124.642
G1 F1350 X87.746 Y83.22 E160.24033
G0 F6000 X87.746 Y85.483
G1 F1350 X126.905 Y124.642 E164.66093
G0 F6000 X124.642 Y124.642
G1 F1350 X87.746 Y87.746 E168.82607
G0 F6000 X87.746 Y90.009
G1 F1350 X122.379 Y124.642 E172.73574
G0 F6000 X120.116 Y124.641
G1 F1350 X87.746 Y92.271 E176.38995
G0 F6000 X87.746 Y94.534
G1 F1350 X117.853 Y124.641 E179.78869
G0 F6000 X115.59 Y124.641
G1 F1350 X87.746 Y96.797 E182.93196
G0 F6000 X87.746 Y99.06
G1 F1350 X113.328 Y124.641 E185.81982
G0 F6000 X111.064 Y124.641
G1 F1350 X87.746 Y101.322 E188.45221
G0 F6000 X87.746 Y103.585
G1 F1350 X108.801 Y124.641 E190.82914
G0 F6000 X106.539 Y124.641
G1 F1350 X87.746 Y105.848 E192.95066
G0 F6000 X87.746 Y108.11
G1 F1350 X104.276 Y124.641 E194.81676
G0 F6000 X102.013 Y124.641
G1 F1350 X87.746 Y110.373 E196.4274
G0 F6000 X87.959 Y112.849
G1 F1350 X99.535 Y124.426 E197.73426
G0 F6000 X96.312 Y123.465
G1 F1350 X88.911 Y116.064 E198.56975
G0 F6000 X150.184 Y95.878
G1 F1350 X88.625 Y34.32 E205.519
G0 F6000 X89.347 Y32.778
G1 F1350 X149.941 Y93.372 E212.35938
G0 F6000 X148.87 Y90.038
G1 F1350 X90.214 Y31.383 E218.98092
G0 F6000 X91.212 Y30.118
G1 F1350 X146.29 Y85.196 E225.1986
G0 F6000 X146.146 Y82.79
G1 F1350 X92.344 Y28.987 E231.27229
G0 F6000 X93.594 Y27.975
G1 F1350 X146.146 Y80.527 E237.20481
G0 F6000 X145.936 Y78.054
G1 F1350 X94.992 Y27.109 E242.95587
G0 F6000 X96.526 Y26.381
G1 F1350 X145.345 Y75.2 E248.46698
G0 F6000 X145.549 Y73.141
G1 F1350 X98.222 Y25.814 E253.80966
G0 F6000 X100.119 Y25.449
G1 F1350 X145.914 Y71.243 E258.97934
G0 F6000 X146.026 Y69.093
G1 F1350 X102.275 Y25.342 E263.91833
G0 F6000 X104.538 Y25.342
G1 F1350 X146.026 Y66.83 E268.60185
G0 F6000 X146.137 Y64.679
G1 F1350 X106.801 Y25.342 E273.0425
G0 F6000 X109.064 Y25.342
G1 F1350 X146.726 Y63.004 E277.29411
G0 F6000 X147.617 Y61.633
G1 F1350 X111.326 Y25.342 E281.39095
G0 F6000 X113.589 Y25.342
G1 F1350 X148.436 Y60.189 E285.32478
G0 F6000 X149.093 Y58.583
G1 F1350 X115.852 Y25.342 E289.07731
G0 F6000 X118.115 Y25.342
G1 F1350 X149.574 Y56.801 E292.62867
G0 F6000 X149.83 Y54.795
G1 F1350 X120.377 Y25.342 E295.95358
G0 F6000 X122.64 Y25.342
G1 F1350 X149.775 Y52.477 E299.01682
G0 F6000 X149.196 Y49.636
G1 F1350 X124.903 Y25.342 E301.75928
G0 F6000 X127.166 Y25.342
G1 F1350 X148.604 Y46.78 E304.17938
G0 F6000 X146.681 Y42.595
G1 F1350 X129.428 Y25.342 E306.12705
G0 F6000 X131.691 Y25.342
G1 F1350 X146.024 Y39.675 E307.74508
G0 F6000 X145.825 Y37.214
G1 F1350 X134.153 Y25.541 E309.06278
G0 F6000 X137.341 Y26.467
M104 S200
G1 F1350 X144.905 Y34.031 E309.91667
G0 F600 X144.905 Y34.031 Z0.48
G0 F6000 X93.55 Y28.001
;TIME_ELAPSED:179.412738
;LAYER:-5
;TYPE:SUPPORT
G1 F1350 X92.685 Y28.676 E310.00425
G1 X91.903 Y29.388 E310.08867
G1 X91.308 Y30.003 E310.15698
G1 X90.642 Y30.797 E310.2397
G1 X90.163 Y31.459 E310.30493
G1 X93.76 Y27.862 E310.71099
G1 X94.356 Y27.466 E310.76811
G1 X95.33 Y26.914 E310.85748
G1 X96.188 Y26.511 E310.93314
G1 X96.739 Y26.297 E310.98033
G1 X88.56 Y34.476 E311.90364
G1 X88.221 Y35.476 E311.98793
G1 X87.961 Y36.488 E312.07134
G1 X98.8 Y25.65 E313.29488
G1 X100.266 Y25.427 E313.41325
G1 X100.45 Y25.414 E313.42797
G1 X87.707 Y38.157 E314.86651
G1 X87.662 Y38.576 E314.90015
G1 X87.626 Y39.652 E314.98609
G1 X101.937 Y25.341 E316.60164
G1 X103.352 Y25.341 E316.71459
G1 X87.626 Y41.066 E318.48982
G1 X87.626 Y42.48 E318.60269
G1 X104.766 Y25.341 E320.53755
G1 X106.18 Y25.341 E320.65042
G1 X87.626 Y43.895 E322.74495
G1 X87.626 Y45.309 E322.85783
G1 X107.594 Y25.341 E325.11199
G1 X109.008 Y25.341 E325.22486
G1 X87.626 Y46.723 E327.63864
G1 X87.626 Y48.137 E327.75151
G1 X110.423 Y25.341 E330.32498
G1 X111.837 Y25.341 E330.43785
G1 X87.626 Y49.551 E333.17094
G1 X87.626 Y50.966 E333.28389
G1 X113.251 Y25.341 E336.17667
G1 X114.665 Y25.341 E336.28954
G1 X87.626 Y52.38 E339.34193
G1 X87.626 Y53.794 E339.4548
G1 X116.08 Y25.341 E342.66688
G1 X117.494 Y25.341 E342.77975
G1 X87.626 Y55.208 E346.15145
G1 X87.626 Y56.622 E346.26433
G1 X118.908 Y25.341 E349.79565
G1 X120.322 Y25.341 E349.90852
G1 X87.626 Y58.037 E353.59953
G1 X87.626 Y59.451 E353.7124
G1 X121.736 Y25.341 E357.56303
G1 X123.151 Y25.341 E357.67599
G1 X87.626 Y60.865 E361.6863
G1 X87.626 Y62.279 E361.79917
G1 X124.565 Y25.341 E365.96911
G1 X125.979 Y25.341 E366.08198
G1 X87.626 Y63.694 E370.4116
G1 X87.626 Y65.108 E370.52447
G1 X127.393 Y25.341 E375.01371
G1 X128.807 Y25.341 E375.12658
G1 X87.626 Y66.522 E379.77545
G1 X87.626 Y67.936 E379.88832
G1 X130.222 Y25.341 E384.69687
G1 X131.636 Y25.341 E384.80974
G1 X87.626 Y69.35 E389.77791
G1 X87.626 Y69.855 E389.81822
G1 X87.685 Y70.706 E389.88632
G1 X132.997 Y25.394 E395.00153
G1 X134.265 Y25.54 E395.10341
G1 X87.83 Y71.975 E400.3454
G1 X88.087 Y73.133 E400.44008
G1 X135.407 Y25.812 E405.78203
G1 X135.905 Y25.94 E405.82308
G1 X136.494 Y26.14 E405.87273
G1 X88.367 Y74.267 E411.30572
G1 X88.41 Y74.476 E411.32275
G1 X88.457 Y75.217 E411.38202
G1 X88.43 Y75.617 E411.41402
G1 X137.509 Y26.539 E416.95443
G1 X137.846 Y26.68 E416.98359
G1 X138.465 Y26.997 E417.0391
G1 X88.089 Y77.373 E422.72598
G1 X87.901 Y78.355 E422.80579
G1 X87.828 Y79.048 E422.86142
G1 X139.361 Y27.515 E428.67891
G1 X139.656 Y27.694 E428.70645
G1 X140.202 Y28.089 E428.76025
G1 X87.747 Y80.544 E434.68182
G1 X87.747 Y81.958 E434.79469
G1 X140.993 Y28.712 E440.80556
G1 X141.363 Y29.023 E440.84414
G1 X141.736 Y29.383 E440.88552
G1 X87.747 Y83.372 E446.98027
G1 X87.747 Y84.787 E447.09322
G1 X142.424 Y30.109 E453.26569
G1 X142.689 Y30.399 E453.29705
G1 X143.065 Y30.882 E453.34591
G1 X87.747 Y86.201 E459.59074
G1 X87.747 Y87.615 E459.70361
G1 X143.657 Y31.705 E466.01521
G1 X143.899 Y32.07 E466.05017
G1 X144.191 Y32.585 E466.09743
G1 X87.747 Y89.029 E472.46931
G1 X87.747 Y90.443 E472.58219
G1 X144.674 Y33.516 E479.0086
G1 X144.856 Y33.902 E479.04266
G1 X145.092 Y34.512 E479.09487
G1 X87.747 Y91.858 E485.56853
G1 X87.747 Y93.272 E485.6814
G1 X145.446 Y35.572 E492.19502
G1 X145.584 Y36.036 E492.23366
G1 X145.731 Y36.701 E492.28802
G1 X87.747 Y94.686 E498.83382
G1 X87.747 Y96.1 E498.94669
G1 X145.93 Y37.917 E505.51489
G1 X146.027 Y39.234 E505.6203
G1 X87.747 Y97.514 E512.19945
G1 X87.747 Y98.929 E512.3124
G1 X146.059 Y40.616 E518.89522
G1 X146.209 Y41.386 E518.95784
G1 X146.331 Y41.758 E518.98909
G1 X87.747 Y100.343 E525.60262
G1 X87.747 Y101.757 E525.71549
G1 X146.755 Y42.749 E532.37682
G1 X147.292 Y43.626 E532.45891
G1 X87.747 Y103.171 E539.18086
G1 X87.747 Y104.586 E539.29381
G1 X147.767 Y44.565 E546.06945
G1 X147.981 Y45.02 E546.10958
G1 X148.189 Y45.557 E546.15555
G1 X87.747 Y106 E552.97882
G1 X87.747 Y107.414 E553.0917
G1 X148.549 Y46.611 E559.95561
G1 X148.71 Y47.154 E560.00082
G1 X148.839 Y47.736 E560.0484
G1 X87.747 Y108.828 E566.945
G1 X87.747 Y110.242 E567.05787
G1 X149.038 Y48.951 E573.97692
G1 X149.303 Y50.1 E574.07105
G1 X87.805 Y111.598 E581.01348
G1 X87.833 Y112.011 E581.04652
G1 X87.962 Y112.855 E581.11467
G1 X149.591 Y51.226 E588.07189
G1 X149.793 Y52.439 E588.17005
G1 X88.211 Y114.02 E595.1219
G1 X88.534 Y115.112 E595.2128
G1 X149.855 Y53.791 E602.13525
G1 X149.864 Y54.24 E602.17109
G1 X149.809 Y55.251 E602.25192
G1 X88.937 Y116.123 E609.12367
G1 X89.389 Y117.085 E609.20852
G1 X149.543 Y56.931 E615.99922
G1 X149.452 Y57.373 E616.03524
G1 X149.158 Y58.402 E616.12067
G1 X148.966 Y58.923 E616.16499
G1 X89.915 Y117.973 E622.83112
G1 X90.486 Y118.817 E622.91247
G1 X147.528 Y61.774 E629.35192
G1 X147.152 Y62.318 E629.4047
G1 X146.769 Y62.91 E629.46099
G1 X146.451 Y63.569 E629.51939
G1 X146.219 Y64.265 E629.57796
G1 X146.161 Y64.556 E629.60164
G1 X91.108 Y119.609 E635.8165
G1 X91.781 Y120.35 E635.89641
G1 X146.026 Y66.105 E642.02005
G1 X146.026 Y67.52 E642.133
G1 X92.505 Y121.04 E648.17486
G1 X93.278 Y121.681 E648.25502
G1 X146.026 Y68.934 E654.20961
G1 X146.026 Y69.512 E654.25575
G1 X145.995 Y70.379 E654.325
G1 X94.098 Y122.275 E660.18353
G1 X94.979 Y122.809 E660.26576
G1 X145.801 Y71.987 E666.00299
G1 X145.663 Y72.711 E666.06182
G1 X145.5 Y73.338 E666.11354
G1 X145.412 Y73.79 E666.15029
G1 X95.909 Y123.293 E671.73862
G1 X96.904 Y123.712 E671.8248
G1 X145.345 Y75.271 E677.29324
G1 X145.36 Y75.506 E677.31204
G1 X145.566 Y76.465 E677.39033
G1 X97.963 Y124.068 E682.76417
G1 X99.088 Y124.356 E682.85687
G1 X145.862 Y77.582 E688.13712
G1 X146.048 Y78.811 E688.23635
G1 X100.323 Y124.536 E693.39818
G1 X100.841 Y124.596 E693.4398
G1 X101.645 Y124.628 E693.50403
G1 X146.146 Y80.127 E698.52769
G1 X146.146 Y81.542 E698.64064
G1 X103.046 Y124.641 E703.50609
G1 X104.46 Y124.641 E703.61896
G1 X146.146 Y82.956 E708.32478
G1 X146.146 Y83.974 E708.40604
G1 X146.169 Y84.347 E708.43587
G1 X105.875 Y124.641 E712.9846
