; G-Code generated by Simplify3D(R) Version 4.0.1
; Oct 3, 2022 at 11:17:38 PM
; Settings Summary
;   processName,Process1
;   applyToModels,?? - ??,?? - ??,´«ËÍ´øÖ§¼Ü
;   profileName,Default (modified)
;   profileVersion,2017-03-01 08:00:00
;   baseProfile,
;   printMaterial,ABS
;   printQuality,Medium
;   printExtruders,
;   extruderName,Primary Extruder
;   extruderToolheadNumber,0
;   extruderDiameter,0.4
;   extruderAutoWidth,0
;   extruderWidth,0.4
;   extrusionMultiplier,1
;   extruderUseRetract,1
;   extruderRetractionDistance,1
;   extruderExtraRestartDistance,0
;   extruderRetractionZLift,0
;   extruderRetractionSpeed,1800
;   extruderUseCoasting,0
;   extruderCoastingDistance,0.2
;   extruderUseWipe,0
;   extruderWipeDistance,5
;   primaryExtruder,0
;   layerHeight,0.2
;   topSolidLayers,3
;   bottomSolidLayers,3
;   perimeterOutlines,2
;   printPerimetersInsideOut,1
;   startPointOption,2
;   startPointOriginX,0
;   startPointOriginY,0
;   sequentialIslands,0
;   spiralVaseMode,0
;   firstLayerHeightPercentage,90
;   firstLayerWidthPercentage,100
;   firstLayerUnderspeed,0.5
;   useRaft,1
;   raftExtruder,0
;   raftTopLayers,3
;   raftBaseLayers,2
;   raftOffset,3
;   raftSeparationDistance,0.14
;   raftTopInfill,100
;   aboveRaftSpeedMultiplier,0.3
;   useSkirt,1
;   skirtExtruder,0
;   skirtLayers,1
;   skirtOutlines,2
;   skirtOffset,4
;   usePrimePillar,0
;   primePillarExtruder,999
;   primePillarWidth,12
;   primePillarLocation,7
;   primePillarSpeedMultiplier,1
;   useOozeShield,0
;   oozeShieldExtruder,999
;   oozeShieldOffset,2
;   oozeShieldOutlines,1
;   oozeShieldSidewallShape,1
;   oozeShieldSidewallAngle,30
;   oozeShieldSpeedMultiplier,1
;   infillExtruder,0
;   internalInfillPattern,Rectilinear
;   externalInfillPattern,Rectilinear
;   infillPercentage,30
;   outlineOverlapPercentage,15
;   infillExtrusionWidthPercentage,100
;   minInfillLength,5
;   infillLayerInterval,1
;   internalInfillAngles,45,-45
;   overlapInternalInfillAngles,0
;   externalInfillAngles,45,-45
;   generateSupport,0
;   supportExtruder,0
;   supportInfillPercentage,30
;   supportExtraInflation,0
;   supportBaseLayers,0
;   denseSupportExtruder,0
;   denseSupportLayers,0
;   denseSupportInfillPercentage,70
;   supportLayerInterval,1
;   supportHorizontalPartOffset,0.3
;   supportUpperSeparationLayers,1
;   supportLowerSeparationLayers,1
;   supportType,0
;   supportGridSpacing,4
;   maxOverhangAngle,45
;   supportAngles,0
;   temperatureName,Primary Extruder
;   temperatureNumber,0
;   temperatureSetpointCount,1
;   temperatureSetpointLayers,1
;   temperatureSetpointTemperatures,235
;   temperatureStabilizeAtStartup,1
;   temperatureHeatedBed,0
;   temperatureRelayBetweenLayers,0
;   temperatureRelayBetweenLoops,0
;   fanLayers,1
;   fanSpeeds,0
;   blipFanToFullPower,0
;   adjustSpeedForCooling,1
;   minSpeedLayerTime,15
;   minCoolingSpeedSlowdown,20
;   increaseFanForCooling,0
;   minFanLayerTime,45
;   maxCoolingFanSpeed,100
;   increaseFanForBridging,0
;   bridgingFanSpeed,100
;   use5D,1
;   relativeEdistances,0
;   allowEaxisZeroing,1
;   independentExtruderAxes,0
;   includeM10123,0
;   stickySupport,1
;   applyToolheadOffsets,0
;   gcodeXoffset,0
;   gcodeYoffset,0
;   gcodeZoffset,0
;   overrideMachineDefinition,0
;   machineTypeOverride,0
;   strokeXoverride,200
;   strokeYoverride,200
;   strokeZoverride,200
;   originOffsetXoverride,0
;   originOffsetYoverride,0
;   originOffsetZoverride,0
;   homeXdirOverride,-1
;   homeYdirOverride,-1
;   homeZdirOverride,-1
;   flipXoverride,1
;   flipYoverride,-1
;   flipZoverride,1
;   toolheadOffsets,0,0|0,0|0,0|0,0|0,0|0,0
;   overrideFirmwareConfiguration,0
;   firmwareTypeOverride,RepRap (Marlin/Repetier/Sprinter)
;   GPXconfigOverride,r2
;   baudRateOverride,115200
;   overridePrinterModels,0
;   printerModelsOverride
;   startingGcode,G28 ; home all axes
;   layerChangeGcode,
;   retractionGcode,
;   toolChangeGcode,
;   endingGcode,M104 S0 ; turn off extruder,M140 S0 ; turn off bed,M84 ; disable motors
;   exportFileFormat,gcode
;   celebration,0
;   celebrationSong,Random Song
;   postProcessing,
;   defaultSpeed,3600
;   outlineUnderspeed,0.5
;   solidInfillUnderspeed,0.8
;   supportUnderspeed,0.8
;   rapidXYspeed,4800
;   rapidZspeed,1000
;   minBridgingArea,50
;   bridgingExtraInflation,0
;   bridgingExtrusionMultiplier,1
;   bridgingSpeedMultiplier,1
;   useFixedBridgingAngle,0
;   fixedBridgingAngle,0
;   applyBridgingToPerimeters,0
;   filamentDiameters,1.75|1.75|1.75|1.75|1.75|1.75
;   filamentPricesPerKg,46|46|46|46|46|46
;   filamentDensities,1.25|1.25|1.25|1.25|1.25|1.25
;   useMinPrintHeight,0
;   minPrintHeight,0
;   useMaxPrintHeight,0
;   maxPrintHeight,0
;   useDiaphragm,0
;   diaphragmLayerInterval,20
;   robustSlicing,1
;   mergeAllIntoSolid,0
;   onlyRetractWhenCrossingOutline,1
;   retractBetweenLayers,1
;   useRetractionMinTravel,0
;   retractionMinTravel,3
;   retractWhileWiping,0
;   onlyWipeOutlines,1
;   avoidCrossingOutline,0
;   maxMovementDetourFactor,3
;   toolChangeRetractionDistance,12
;   toolChangeExtraRestartDistance,-0.5
;   toolChangeRetractionSpeed,600
;   externalThinWallType,0
;   internalThinWallType,2
;   thinWallAllowedOverlapPercentage,10
;   singleExtrusionMinLength,1
;   singleExtrusionMinPrintingWidthPercentage,50
;   singleExtrusionMaxPrintingWidthPercentage,200
;   singleExtrusionEndpointExtension,0.2
;   horizontalSizeCompensation,0
G90
M82
M106 S0
M104 S235 T0
M109 S235 T0
G28 ; home all axes
G92 E0
G1 E-1.0000 F1800
G1 Z0.450 F1000
; process Process1
; layer 1, Z = 0.450
T0
; tool H0.500 W0.400
; skirt
G1 X66.107 Y79.417 F4800
G1 E0.0000 F540
G92 E0
G1 X66.125 Y79.402 E0.0020 F1800
G1 X66.589 Y79.065 E0.0496
G1 X66.609 Y79.052 E0.0516
G1 X67.365 Y78.588 E0.1254
G1 X67.386 Y78.577 E0.1274
G1 X67.897 Y78.316 E0.1751
G1 X67.919 Y78.306 E0.1770
G1 X68.739 Y77.967 E0.2508
G1 X68.761 Y77.958 E0.2528
G1 X69.306 Y77.781 E0.3005
G1 X69.329 Y77.775 E0.3024
G1 X70.192 Y77.568 E0.3762
G1 X70.215 Y77.563 E0.3782
G1 X70.782 Y77.473 E0.4259
G1 X70.805 Y77.471 E0.4278
G1 X71.536 Y77.413 E0.4888
G1 X71.548 Y77.412 E0.4898
G1 X71.834 Y77.401 E0.5137
G1 X71.846 Y77.401 E0.5146
G1 X228.143 Y77.400 E13.5108
G1 X228.155 Y77.400 E13.5118
G1 X228.442 Y77.411 E13.5356
G1 X228.453 Y77.412 E13.5366
G1 X229.195 Y77.471 E13.5984
G1 X229.218 Y77.473 E13.6004
G1 X229.785 Y77.563 E13.6481
G1 X229.808 Y77.568 E13.6501
G1 X230.671 Y77.775 E13.7239
G1 X230.694 Y77.781 E13.7258
G1 X231.239 Y77.958 E13.7735
G1 X231.261 Y77.967 E13.7755
G1 X232.081 Y78.306 E13.8493
G1 X232.103 Y78.316 E13.8512
G1 X232.614 Y78.577 E13.8989
G1 X232.634 Y78.588 E13.9009
G1 X233.391 Y79.052 E13.9747
G1 X233.411 Y79.065 E13.9766
G1 X233.875 Y79.402 E14.0243
G1 X233.893 Y79.417 E14.0263
G1 X234.568 Y79.993 E14.1001
G1 X234.585 Y80.009 E14.1020
G1 X234.991 Y80.415 E14.1497
G1 X235.007 Y80.432 E14.1517
G1 X235.583 Y81.107 E14.2255
G1 X235.598 Y81.125 E14.2275
G1 X235.935 Y81.589 E14.2752
G1 X235.948 Y81.609 E14.2771
G1 X236.412 Y82.366 E14.3509
G1 X236.423 Y82.386 E14.3529
G1 X236.684 Y82.897 E14.4006
G1 X236.694 Y82.919 E14.4025
G1 X237.033 Y83.739 E14.4763
G1 X237.042 Y83.761 E14.4783
G1 X237.219 Y84.306 E14.5260
G1 X237.225 Y84.329 E14.5279
G1 X237.432 Y85.192 E14.6017
G1 X237.437 Y85.215 E14.6037
G1 X237.527 Y85.782 E14.6514
G1 X237.529 Y85.805 E14.6533
G1 X237.587 Y86.536 E14.7143
G1 X237.588 Y86.548 E14.7153
G1 X237.599 Y86.834 E14.7391
G1 X237.599 Y86.846 E14.7401
G1 X237.600 Y113.143 E16.9267
G1 X237.600 Y113.155 E16.9277
G1 X237.589 Y113.442 E16.9516
G1 X237.588 Y113.453 E16.9526
G1 X237.529 Y114.195 E17.0144
G1 X237.527 Y114.219 E17.0164
G1 X237.437 Y114.785 E17.0641
G1 X237.432 Y114.808 E17.0660
G1 X237.225 Y115.671 E17.1398
G1 X237.219 Y115.694 E17.1418
G1 X237.042 Y116.239 E17.1895
G1 X237.033 Y116.261 E17.1914
G1 X236.694 Y117.081 E17.2652
G1 X236.684 Y117.103 E17.2672
G1 X236.423 Y117.614 E17.3149
G1 X236.412 Y117.634 E17.3168
G1 X235.948 Y118.391 E17.3906
G1 X235.935 Y118.411 E17.3926
G1 X235.598 Y118.875 E17.4403
G1 X235.583 Y118.893 E17.4423
G1 X235.007 Y119.568 E17.5161
G1 X234.991 Y119.585 E17.5180
G1 X234.585 Y119.991 E17.5657
G1 X234.568 Y120.007 E17.5677
G1 X233.893 Y120.583 E17.6415
G1 X233.875 Y120.598 E17.6434
G1 X233.411 Y120.935 E17.6911
G1 X233.391 Y120.948 E17.6931
G1 X232.634 Y121.412 E17.7669
G1 X232.614 Y121.423 E17.7688
G1 X232.103 Y121.684 E17.8165
G1 X232.081 Y121.694 E17.8185
G1 X231.261 Y122.033 E17.8923
G1 X231.239 Y122.042 E17.8942
G1 X230.694 Y122.219 E17.9419
G1 X230.671 Y122.225 E17.9439
G1 X229.808 Y122.432 E18.0177
G1 X229.785 Y122.437 E18.0196
G1 X229.218 Y122.527 E18.0673
G1 X229.195 Y122.529 E18.0693
G1 X228.464 Y122.587 E18.1303
G1 X228.452 Y122.588 E18.1313
G1 X228.166 Y122.599 E18.1551
G1 X228.154 Y122.599 E18.1561
G1 X71.857 Y122.600 E31.1523
G1 X71.845 Y122.600 E31.1532
G1 X71.558 Y122.589 E31.1771
G1 X71.547 Y122.588 E31.1781
G1 X70.805 Y122.529 E31.2399
G1 X70.781 Y122.527 E31.2419
G1 X70.215 Y122.437 E31.2896
G1 X70.192 Y122.432 E31.2915
G1 X69.329 Y122.225 E31.3653
G1 X69.306 Y122.219 E31.3673
G1 X68.761 Y122.042 E31.4150
G1 X68.739 Y122.033 E31.4169
G1 X67.919 Y121.694 E31.4907
G1 X67.897 Y121.684 E31.4927
G1 X67.386 Y121.423 E31.5404
G1 X67.365 Y121.412 E31.5424
G1 X66.609 Y120.948 E31.6162
G1 X66.589 Y120.935 E31.6181
G1 X66.125 Y120.598 E31.6658
G1 X66.107 Y120.583 E31.6678
G1 X65.432 Y120.007 E31.7415
G1 X65.415 Y119.991 E31.7435
G1 X65.009 Y119.585 E31.7912
G1 X64.993 Y119.568 E31.7932
G1 X64.417 Y118.893 E31.8670
G1 X64.402 Y118.875 E31.8689
G1 X64.065 Y118.411 E31.9166
G1 X64.052 Y118.391 E31.9186
G1 X63.588 Y117.635 E31.9924
G1 X63.577 Y117.614 E31.9943
G1 X63.316 Y117.103 E32.0420
G1 X63.306 Y117.081 E32.0440
G1 X62.967 Y116.261 E32.1178
G1 X62.958 Y116.239 E32.1198
G1 X62.781 Y115.694 E32.1675
G1 X62.775 Y115.671 E32.1694
G1 X62.568 Y114.808 E32.2432
G1 X62.563 Y114.785 E32.2452
G1 X62.473 Y114.218 E32.2929
G1 X62.471 Y114.195 E32.2948
G1 X62.413 Y113.464 E32.3558
G1 X62.412 Y113.452 E32.3568
G1 X62.401 Y113.166 E32.3806
G1 X62.401 Y113.154 E32.3816
G1 X62.400 Y86.857 E34.5682
G1 X62.400 Y86.845 E34.5692
G1 X62.411 Y86.559 E34.5930
G1 X62.412 Y86.547 E34.5940
G1 X62.471 Y85.805 E34.6559
G1 X62.473 Y85.782 E34.6578
G1 X62.563 Y85.215 E34.7055
G1 X62.568 Y85.192 E34.7075
G1 X62.775 Y84.329 E34.7813
G1 X62.781 Y84.306 E34.7832
G1 X62.958 Y83.761 E34.8309
G1 X62.967 Y83.739 E34.8329
G1 X63.306 Y82.919 E34.9067
G1 X63.316 Y82.897 E34.9086
G1 X63.577 Y82.386 E34.9564
G1 X63.588 Y82.365 E34.9583
G1 X64.052 Y81.609 E35.0321
G1 X64.065 Y81.589 E35.0341
G1 X64.402 Y81.125 E35.0818
G1 X64.417 Y81.107 E35.0837
G1 X64.993 Y80.432 E35.1575
G1 X65.009 Y80.415 E35.1595
G1 X65.415 Y80.009 E35.2072
G1 X65.432 Y79.993 E35.2091
G1 X66.107 Y79.417 E35.2829
G92 E0
G1 E-1.0000 F1800
G1 X66.361 Y79.726 F4800
G1 E0.0000 F1800
G92 E0
G1 X66.367 Y79.721 E0.0007 F1800
G1 X66.818 Y79.393 E0.0470
G1 X66.825 Y79.389 E0.0477
G1 X67.568 Y78.933 E0.1202
G1 X67.575 Y78.929 E0.1208
G1 X68.072 Y78.676 E0.1672
G1 X68.079 Y78.673 E0.1679
G1 X68.884 Y78.339 E0.2404
G1 X68.892 Y78.336 E0.2410
G1 X69.422 Y78.164 E0.2874
G1 X69.430 Y78.162 E0.2881
G1 X70.278 Y77.958 E0.3606
G1 X70.285 Y77.957 E0.3612
G1 X70.836 Y77.870 E0.4076
G1 X70.844 Y77.869 E0.4082
G1 X71.564 Y77.812 E0.4683
G1 X71.568 Y77.812 E0.4686
G1 X71.846 Y77.801 E0.4918
G1 X71.850 Y77.801 E0.4921
G1 X228.139 Y77.800 E13.4876
G1 X228.143 Y77.800 E13.4879
G1 X228.422 Y77.811 E13.5111
G1 X228.426 Y77.811 E13.5114
G1 X229.156 Y77.869 E13.5723
G1 X229.164 Y77.870 E13.5730
G1 X229.715 Y77.957 E13.6194
G1 X229.722 Y77.958 E13.6200
G1 X230.570 Y78.162 E13.6925
G1 X230.578 Y78.164 E13.6932
G1 X231.108 Y78.336 E13.7396
G1 X231.116 Y78.339 E13.7402
G1 X231.921 Y78.673 E13.8127
G1 X231.928 Y78.676 E13.8133
G1 X232.425 Y78.929 E13.8597
G1 X232.432 Y78.933 E13.8604
G1 X233.175 Y79.389 E13.9329
G1 X233.182 Y79.393 E13.9335
G1 X233.633 Y79.721 E13.9799
G1 X233.639 Y79.726 E13.9806
G1 X234.302 Y80.292 E14.0531
G1 X234.308 Y80.297 E14.0537
G1 X234.703 Y80.692 E14.1001
G1 X234.708 Y80.698 E14.1008
G1 X235.274 Y81.360 E14.1732
G1 X235.279 Y81.367 E14.1739
G1 X235.607 Y81.818 E14.2203
G1 X235.611 Y81.825 E14.2209
G1 X236.067 Y82.568 E14.2934
G1 X236.071 Y82.575 E14.2941
G1 X236.324 Y83.072 E14.3405
G1 X236.327 Y83.079 E14.3411
G1 X236.661 Y83.884 E14.4136
G1 X236.664 Y83.892 E14.4143
G1 X236.836 Y84.422 E14.4607
G1 X236.838 Y84.430 E14.4613
G1 X237.042 Y85.278 E14.5338
G1 X237.043 Y85.285 E14.5345
G1 X237.130 Y85.836 E14.5808
G1 X237.131 Y85.844 E14.5815
G1 X237.188 Y86.564 E14.6415
G1 X237.188 Y86.568 E14.6418
G1 X237.199 Y86.846 E14.6650
G1 X237.199 Y86.850 E14.6653
G1 X237.200 Y113.139 E16.8513
G1 X237.200 Y113.143 E16.8516
G1 X237.189 Y113.422 E16.8748
G1 X237.189 Y113.426 E16.8752
G1 X237.131 Y114.156 E16.9360
G1 X237.130 Y114.164 E16.9367
G1 X237.043 Y114.715 E16.9831
G1 X237.042 Y114.722 E16.9837
G1 X236.838 Y115.570 E17.0562
G1 X236.836 Y115.578 E17.0569
G1 X236.664 Y116.108 E17.1033
G1 X236.661 Y116.116 E17.1039
G1 X236.327 Y116.921 E17.1764
G1 X236.324 Y116.928 E17.1771
G1 X236.071 Y117.425 E17.2234
G1 X236.067 Y117.432 E17.2241
G1 X235.611 Y118.175 E17.2966
G1 X235.607 Y118.182 E17.2972
G1 X235.279 Y118.633 E17.3436
G1 X235.274 Y118.639 E17.3443
G1 X234.708 Y119.302 E17.4168
G1 X234.703 Y119.308 E17.4174
G1 X234.308 Y119.703 E17.4638
G1 X234.302 Y119.708 E17.4645
G1 X233.639 Y120.274 E17.5370
G1 X233.633 Y120.279 E17.5376
G1 X233.182 Y120.607 E17.5840
G1 X233.175 Y120.611 E17.5847
G1 X232.432 Y121.067 E17.6571
G1 X232.425 Y121.071 E17.6578
G1 X231.928 Y121.324 E17.7042
G1 X231.921 Y121.327 E17.7048
G1 X231.116 Y121.661 E17.7773
G1 X231.108 Y121.664 E17.7780
G1 X230.578 Y121.836 E17.8244
G1 X230.570 Y121.838 E17.8250
G1 X229.722 Y122.042 E17.8975
G1 X229.715 Y122.043 E17.8982
G1 X229.164 Y122.130 E17.9446
G1 X229.156 Y122.131 E17.9452
G1 X228.436 Y122.188 E18.0052
G1 X228.432 Y122.188 E18.0055
G1 X228.154 Y122.199 E18.0287
G1 X228.150 Y122.199 E18.0291
G1 X71.861 Y122.200 E31.0246
G1 X71.857 Y122.200 E31.0249
G1 X71.578 Y122.189 E31.0481
G1 X71.574 Y122.189 E31.0484
G1 X70.844 Y122.131 E31.1093
G1 X70.836 Y122.130 E31.1099
G1 X70.285 Y122.043 E31.1563
G1 X70.278 Y122.042 E31.1570
G1 X69.430 Y121.838 E31.2295
G1 X69.422 Y121.836 E31.2301
G1 X68.892 Y121.664 E31.2765
G1 X68.884 Y121.661 E31.2772
G1 X68.079 Y121.327 E31.3497
G1 X68.072 Y121.324 E31.3503
G1 X67.575 Y121.071 E31.3967
G1 X67.568 Y121.067 E31.3974
G1 X66.825 Y120.611 E31.4698
G1 X66.818 Y120.607 E31.4705
G1 X66.367 Y120.279 E31.5169
G1 X66.361 Y120.274 E31.5175
G1 X65.698 Y119.708 E31.5900
G1 X65.692 Y119.703 E31.5907
G1 X65.297 Y119.308 E31.6371
G1 X65.292 Y119.302 E31.6377
G1 X64.726 Y118.640 E31.7102
G1 X64.721 Y118.633 E31.7109
G1 X64.393 Y118.182 E31.7572
G1 X64.389 Y118.176 E31.7579
G1 X63.933 Y117.432 E31.8304
G1 X63.929 Y117.425 E31.8310
G1 X63.676 Y116.928 E31.8775
G1 X63.673 Y116.921 E31.8781
G1 X63.339 Y116.115 E31.9506
G1 X63.336 Y116.108 E31.9513
G1 X63.164 Y115.577 E31.9976
G1 X63.162 Y115.570 E31.9983
G1 X62.958 Y114.722 E32.0708
G1 X62.957 Y114.715 E32.0714
G1 X62.870 Y114.164 E32.1178
G1 X62.869 Y114.156 E32.1185
G1 X62.812 Y113.436 E32.1785
G1 X62.812 Y113.432 E32.1788
G1 X62.801 Y113.154 E32.2020
G1 X62.801 Y113.150 E32.2023
G1 X62.800 Y86.861 E34.3883
G1 X62.800 Y86.857 E34.3886
G1 X62.811 Y86.578 E34.4118
G1 X62.811 Y86.574 E34.4121
G1 X62.869 Y85.844 E34.4730
G1 X62.870 Y85.836 E34.4736
G1 X62.957 Y85.285 E34.5200
G1 X62.958 Y85.278 E34.5207
G1 X63.162 Y84.430 E34.5932
G1 X63.164 Y84.423 E34.5938
G1 X63.336 Y83.892 E34.6402
G1 X63.339 Y83.885 E34.6408
G1 X63.673 Y83.079 E34.7133
G1 X63.676 Y83.072 E34.7140
G1 X63.929 Y82.575 E34.7604
G1 X63.933 Y82.568 E34.7611
G1 X64.389 Y81.824 E34.8336
G1 X64.393 Y81.818 E34.8342
G1 X64.721 Y81.367 E34.8806
G1 X64.726 Y81.360 E34.8813
G1 X65.292 Y80.698 E34.9537
G1 X65.297 Y80.692 E34.9544
G1 X65.692 Y80.297 E35.0008
G1 X65.698 Y80.292 E35.0014
G1 X66.361 Y79.726 E35.0739
G92 E0
G1 E-1.0000 F1800
; tool H0.500 W0.800
; raft
G1 X69.214 Y83.339 F4800
