; G-Code generated by Simplify3D(R) Version 4.0.1
; Sep 25, 2022 at 12:20:47 PM
; Settings Summary
;   processName,Process1
;   applyToModels,µ×°å - ¸±±¾
;   profileName,Default (modified)
;   profileVersion,2017-03-01 08:00:00
;   baseProfile,
;   printMaterial,PLA
;   printQuality,Medium
;   printExtruders,
;   extruderName,Primary Extruder
;   extruderToolheadNumber,0
;   extruderDiameter,0.4
;   extruderAutoWidth,0
;   extruderWidth,0.4
;   extrusionMultiplier,0.9
;   extruderUseRetract,1
;   extruderRetractionDistance,1
;   extruderExtraRestartDistance,0
;   extruderRetractionZLift,0
;   extruderRetractionSpeed,1800
;   extruderUseCoasting,0
;   extruderCoastingDistance,0.2
;   extruderUseWipe,0
;   extruderWipeDistance,5
;   primaryExtruder,0
;   layerHeight,0.2
;   topSolidLayers,3
;   bottomSolidLayers,3
;   perimeterOutlines,2
;   printPerimetersInsideOut,1
;   startPointOption,2
;   startPointOriginX,0
;   startPointOriginY,0
;   sequentialIslands,0
;   spiralVaseMode,0
;   firstLayerHeightPercentage,90
;   firstLayerWidthPercentage,100
;   firstLayerUnderspeed,0.5
;   useRaft,1
;   raftExtruder,0
;   raftTopLayers,3
;   raftBaseLayers,2
;   raftOffset,3
;   raftSeparationDistance,0.14
;   raftTopInfill,100
;   aboveRaftSpeedMultiplier,0.3
;   useSkirt,1
;   skirtExtruder,0
;   skirtLayers,1
;   skirtOutlines,2
;   skirtOffset,4
;   usePrimePillar,0
;   primePillarExtruder,999
;   primePillarWidth,12
;   primePillarLocation,7
;   primePillarSpeedMultiplier,1
;   useOozeShield,0
;   oozeShieldExtruder,999
;   oozeShieldOffset,2
;   oozeShieldOutlines,1
;   oozeShieldSidewallShape,1
;   oozeShieldSidewallAngle,30
;   oozeShieldSpeedMultiplier,1
;   infillExtruder,0
;   internalInfillPattern,Rectilinear
;   externalInfillPattern,Rectilinear
;   infillPercentage,50
;   outlineOverlapPercentage,15
;   infillExtrusionWidthPercentage,100
;   minInfillLength,5
;   infillLayerInterval,1
;   internalInfillAngles,45,-45
;   overlapInternalInfillAngles,0
;   externalInfillAngles,45,-45
;   generateSupport,1
;   supportExtruder,0
;   supportInfillPercentage,30
;   supportExtraInflation,0
;   supportBaseLayers,0
;   denseSupportExtruder,0
;   denseSupportLayers,0
;   denseSupportInfillPercentage,70
;   supportLayerInterval,1
;   supportHorizontalPartOffset,0.3
;   supportUpperSeparationLayers,1
;   supportLowerSeparationLayers,1
;   supportType,0
;   supportGridSpacing,4
;   maxOverhangAngle,45
;   supportAngles,0
;   temperatureName,Primary Extruder
;   temperatureNumber,0
;   temperatureSetpointCount,1
;   temperatureSetpointLayers,1
;   temperatureSetpointTemperatures,190
;   temperatureStabilizeAtStartup,1
;   temperatureHeatedBed,0
;   temperatureRelayBetweenLayers,0
;   temperatureRelayBetweenLoops,0
;   fanLayers,1,2
;   fanSpeeds,0,100
;   blipFanToFullPower,0
;   adjustSpeedForCooling,1
;   minSpeedLayerTime,15
;   minCoolingSpeedSlowdown,20
;   increaseFanForCooling,0
;   minFanLayerTime,45
;   maxCoolingFanSpeed,100
;   increaseFanForBridging,0
;   bridgingFanSpeed,100
;   use5D,1
;   relativeEdistances,0
;   allowEaxisZeroing,1
;   independentExtruderAxes,0
;   includeM10123,0
;   stickySupport,1
;   applyToolheadOffsets,0
;   gcodeXoffset,0
;   gcodeYoffset,0
;   gcodeZoffset,0
;   overrideMachineDefinition,0
;   machineTypeOverride,0
;   strokeXoverride,200
;   strokeYoverride,200
;   strokeZoverride,200
;   originOffsetXoverride,0
;   originOffsetYoverride,0
;   originOffsetZoverride,0
;   homeXdirOverride,-1
;   homeYdirOverride,-1
;   homeZdirOverride,-1
;   flipXoverride,1
;   flipYoverride,-1
;   flipZoverride,1
;   toolheadOffsets,0,0|0,0|0,0|0,0|0,0|0,0
;   overrideFirmwareConfiguration,0
;   firmwareTypeOverride,RepRap (Marlin/Repetier/Sprinter)
;   GPXconfigOverride,r2
;   baudRateOverride,115200
;   overridePrinterModels,0
;   printerModelsOverride
;   startingGcode,G28 ; home all axes
;   layerChangeGcode,
;   retractionGcode,
;   toolChangeGcode,
;   endingGcode,M104 S0 ; turn off extruder,M140 S0 ; turn off bed,M84 ; disable motors
;   exportFileFormat,gcode
;   celebration,0
;   celebrationSong,Random Song
;   postProcessing,
;   defaultSpeed,3600
;   outlineUnderspeed,0.5
;   solidInfillUnderspeed,0.8
;   supportUnderspeed,0.8
;   rapidXYspeed,4800
;   rapidZspeed,1000
;   minBridgingArea,50
;   bridgingExtraInflation,0
;   bridgingExtrusionMultiplier,1
;   bridgingSpeedMultiplier,1
;   useFixedBridgingAngle,0
;   fixedBridgingAngle,0
;   applyBridgingToPerimeters,0
;   filamentDiameters,1.75|1.75|1.75|1.75|1.75|1.75
;   filamentPricesPerKg,46|46|46|46|46|46
;   filamentDensities,1.25|1.25|1.25|1.25|1.25|1.25
;   useMinPrintHeight,0
;   minPrintHeight,0
;   useMaxPrintHeight,0
;   maxPrintHeight,0
;   useDiaphragm,0
;   diaphragmLayerInterval,20
;   robustSlicing,1
;   mergeAllIntoSolid,0
;   onlyRetractWhenCrossingOutline,1
;   retractBetweenLayers,1
;   useRetractionMinTravel,0
;   retractionMinTravel,3
;   retractWhileWiping,0
;   onlyWipeOutlines,1
;   avoidCrossingOutline,0
;   maxMovementDetourFactor,3
;   toolChangeRetractionDistance,12
;   toolChangeExtraRestartDistance,-0.5
;   toolChangeRetractionSpeed,600
;   externalThinWallType,0
;   internalThinWallType,2
;   thinWallAllowedOverlapPercentage,10
;   singleExtrusionMinLength,1
;   singleExtrusionMinPrintingWidthPercentage,50
;   singleExtrusionMaxPrintingWidthPercentage,200
;   singleExtrusionEndpointExtension,0.2
;   horizontalSizeCompensation,0
G90
M82
M106 S0
M104 S190 T0
M109 S190 T0
G28 ; home all axes
G92 E0
G1 E-1.0000 F1800
G1 Z0.450 F1000
; process Process1
; layer 1, Z = 0.450
T0
; tool H0.500 W0.400
; skirt
G1 X44.990 Y37.343 F4800
G1 E0.0000 F540
G92 E0
G1 X45.872 Y36.311 E0.1016 F1800
G1 X45.888 Y36.293 E0.1034
G1 X46.293 Y35.888 E0.1463
G1 X46.311 Y35.872 E0.1481
G1 X47.343 Y34.990 E0.2497
G1 X47.362 Y34.975 E0.2515
G1 X47.826 Y34.638 E0.2944
G1 X47.845 Y34.625 E0.2962
G1 X49.004 Y33.915 E0.3978
G1 X49.024 Y33.904 E0.3996
G1 X49.535 Y33.643 E0.4425
G1 X49.557 Y33.633 E0.4443
G1 X50.812 Y33.113 E0.5459
G1 X50.834 Y33.105 E0.5477
G1 X51.379 Y32.928 E0.5906
G1 X51.402 Y32.922 E0.5924
G1 X52.722 Y32.605 E0.6940
G1 X52.746 Y32.600 E0.6958
G1 X53.312 Y32.510 E0.7387
G1 X53.336 Y32.507 E0.7405
G1 X54.547 Y32.412 E0.8314
G1 X54.559 Y32.411 E0.8323
G1 X54.845 Y32.400 E0.8537
G1 X54.857 Y32.400 E0.8546
G1 X245.143 Y32.400 E15.0948
G1 X245.155 Y32.400 E15.0956
G1 X245.441 Y32.411 E15.1171
G1 X245.453 Y32.412 E15.1180
G1 X246.664 Y32.507 E15.2089
G1 X246.688 Y32.510 E15.2106
G1 X247.254 Y32.600 E15.2536
G1 X247.278 Y32.605 E15.2554
G1 X248.598 Y32.922 E15.3570
G1 X248.621 Y32.928 E15.3588
G1 X249.166 Y33.105 E15.4017
G1 X249.189 Y33.113 E15.4034
G1 X250.443 Y33.633 E15.5051
G1 X250.465 Y33.643 E15.5069
G1 X250.976 Y33.904 E15.5498
G1 X250.997 Y33.915 E15.5516
G1 X252.155 Y34.625 E15.6532
G1 X252.174 Y34.638 E15.6550
G1 X252.638 Y34.975 E15.6979
G1 X252.657 Y34.990 E15.6996
G1 X253.689 Y35.872 E15.8013
G1 X253.707 Y35.888 E15.8030
G1 X254.112 Y36.293 E15.8460
G1 X254.128 Y36.310 E15.8477
G1 X255.010 Y37.343 E15.9494
G1 X255.025 Y37.362 E15.9511
G1 X255.362 Y37.826 E15.9941
G1 X255.375 Y37.846 E15.9958
G1 X256.085 Y39.004 E16.0975
G1 X256.097 Y39.024 E16.0993
G1 X256.357 Y39.535 E16.1422
G1 X256.367 Y39.557 E16.1439
G1 X256.886 Y40.811 E16.2456
G1 X256.895 Y40.834 E16.2473
G1 X257.072 Y41.379 E16.2903
G1 X257.078 Y41.402 E16.2920
G1 X257.395 Y42.722 E16.3937
G1 X257.400 Y42.746 E16.3954
G1 X257.490 Y43.312 E16.4384
G1 X257.493 Y43.336 E16.4401
G1 X257.588 Y44.547 E16.5310
G1 X257.589 Y44.558 E16.5319
G1 X257.600 Y44.845 E16.5534
G1 X257.600 Y44.857 E16.5542
G1 X257.600 Y155.143 E24.8076
G1 X257.600 Y155.155 E24.8085
G1 X257.589 Y155.442 E24.8299
G1 X257.588 Y155.453 E24.8308
G1 X257.493 Y156.664 E24.9217
G1 X257.490 Y156.688 E24.9235
G1 X257.400 Y157.254 E24.9664
G1 X257.395 Y157.278 E24.9682
G1 X257.078 Y158.598 E25.0698
G1 X257.072 Y158.621 E25.0716
G1 X256.895 Y159.166 E25.1145
G1 X256.886 Y159.189 E25.1163
G1 X256.367 Y160.443 E25.2179
G1 X256.357 Y160.465 E25.2197
G1 X256.097 Y160.976 E25.2626
G1 X256.085 Y160.996 E25.2643
G1 X255.375 Y162.154 E25.3660
G1 X255.362 Y162.174 E25.3678
G1 X255.025 Y162.638 E25.4107
G1 X255.010 Y162.657 E25.4125
G1 X254.128 Y163.690 E25.5141
G1 X254.112 Y163.707 E25.5159
G1 X253.707 Y164.112 E25.5588
G1 X253.689 Y164.128 E25.5606
G1 X252.657 Y165.010 E25.6622
G1 X252.638 Y165.025 E25.6640
G1 X252.174 Y165.362 E25.7069
G1 X252.155 Y165.375 E25.7086
G1 X250.997 Y166.085 E25.8103
G1 X250.976 Y166.096 E25.8120
G1 X250.465 Y166.357 E25.8550
G1 X250.443 Y166.367 E25.8567
G1 X249.189 Y166.887 E25.9584
G1 X249.166 Y166.895 E25.9602
G1 X248.621 Y167.072 E26.0031
G1 X248.598 Y167.078 E26.0048
G1 X247.277 Y167.395 E26.1065
G1 X247.254 Y167.400 E26.1083
G1 X246.688 Y167.490 E26.1512
G1 X246.664 Y167.493 E26.1529
G1 X245.453 Y167.588 E26.2439
G1 X245.442 Y167.589 E26.2447
G1 X245.155 Y167.600 E26.2662
G1 X245.143 Y167.600 E26.2671
G1 X54.857 Y167.600 E40.5072
G1 X54.845 Y167.600 E40.5081
G1 X54.558 Y167.589 E40.5296
G1 X54.547 Y167.588 E40.5305
G1 X53.336 Y167.493 E40.6214
G1 X53.312 Y167.490 E40.6231
G1 X52.746 Y167.400 E40.6661
G1 X52.722 Y167.395 E40.6678
G1 X51.402 Y167.078 E40.7695
G1 X51.379 Y167.072 E40.7712
G1 X50.834 Y166.895 E40.8141
G1 X50.812 Y166.887 E40.8159
G1 X49.557 Y166.367 E40.9176
G1 X49.535 Y166.357 E40.9193
G1 X49.024 Y166.096 E40.9623
G1 X49.004 Y166.085 E40.9640
G1 X47.845 Y165.375 E41.0657
G1 X47.826 Y165.362 E41.0674
G1 X47.362 Y165.025 E41.1103
G1 X47.343 Y165.010 E41.1121
G1 X46.311 Y164.128 E41.2137
G1 X46.293 Y164.112 E41.2155
G1 X45.888 Y163.707 E41.2584
G1 X45.872 Y163.689 E41.2602
G1 X44.990 Y162.657 E41.3618
G1 X44.975 Y162.638 E41.3636
G1 X44.638 Y162.174 E41.4065
G1 X44.625 Y162.155 E41.4083
G1 X43.915 Y160.996 E41.5099
G1 X43.904 Y160.976 E41.5117
G1 X43.643 Y160.465 E41.5546
G1 X43.633 Y160.443 E41.5564
G1 X43.113 Y159.188 E41.6580
G1 X43.105 Y159.166 E41.6598
G1 X42.928 Y158.621 E41.7027
G1 X42.922 Y158.598 E41.7045
G1 X42.605 Y157.278 E41.8061
G1 X42.600 Y157.254 E41.8079
G1 X42.510 Y156.688 E41.8508
G1 X42.507 Y156.664 E41.8526
G1 X42.412 Y155.453 E41.9435
G1 X42.411 Y155.442 E41.9444
G1 X42.400 Y155.155 E41.9658
G1 X42.400 Y155.143 E41.9667
G1 X42.400 Y44.857 E50.2201
G1 X42.400 Y44.845 E50.2209
G1 X42.411 Y44.558 E50.2424
G1 X42.412 Y44.547 E50.2433
G1 X42.507 Y43.336 E50.3342
G1 X42.510 Y43.312 E50.3359
G1 X42.600 Y42.746 E50.3789
G1 X42.605 Y42.722 E50.3806
G1 X42.922 Y41.402 E50.4823
G1 X42.928 Y41.379 E50.4840
G1 X43.105 Y40.834 E50.5270
G1 X43.113 Y40.812 E50.5287
G1 X43.633 Y39.557 E50.6304
G1 X43.643 Y39.535 E50.6321
G1 X43.904 Y39.024 E50.6751
G1 X43.915 Y39.004 E50.6768
G1 X44.625 Y37.845 E50.7785
G1 X44.638 Y37.826 E50.7802
G1 X44.975 Y37.362 E50.8232
G1 X44.990 Y37.343 E50.8249
G92 E0
G1 E-1.0000 F1800
G1 X45.299 Y37.597 F4800
G1 E0.0000 F1800
G92 E0
G1 X46.171 Y36.576 E0.1005 F1800
G1 X46.176 Y36.570 E0.1011
G1 X46.571 Y36.176 E0.1428
G1 X46.576 Y36.171 E0.1434
G1 X47.597 Y35.299 E0.2439
G1 X47.603 Y35.294 E0.2444
G1 X48.055 Y34.966 E0.2862
G1 X48.061 Y34.962 E0.2868
G1 X49.206 Y34.260 E0.3872
G1 X49.213 Y34.256 E0.3878
G1 X49.710 Y34.003 E0.4296
G1 X49.717 Y34.000 E0.4302
G1 X50.957 Y33.486 E0.5306
G1 X50.965 Y33.483 E0.5312
G1 X51.495 Y33.311 E0.5730
G1 X51.503 Y33.309 E0.5736
G1 X52.808 Y32.995 E0.6740
G1 X52.816 Y32.994 E0.6746
G1 X53.367 Y32.907 E0.7164
G1 X53.375 Y32.906 E0.7170
G1 X54.574 Y32.811 E0.8070
G1 X54.578 Y32.811 E0.8073
G1 X54.857 Y32.800 E0.8282
G1 X54.861 Y32.800 E0.8284
G1 X245.139 Y32.800 E15.0680
G1 X245.143 Y32.800 E15.0683
G1 X245.422 Y32.811 E15.0892
G1 X245.426 Y32.811 E15.0895
G1 X246.625 Y32.906 E15.1795
G1 X246.633 Y32.907 E15.1801
G1 X247.184 Y32.994 E15.2218
G1 X247.192 Y32.995 E15.2224
G1 X248.497 Y33.309 E15.3229
G1 X248.505 Y33.311 E15.3235
G1 X249.035 Y33.483 E15.3652
G1 X249.043 Y33.486 E15.3658
G1 X250.283 Y34.000 E15.4663
G1 X250.290 Y34.003 E15.4669
G1 X250.787 Y34.256 E15.5086
G1 X250.794 Y34.260 E15.5092
G1 X251.939 Y34.962 E15.6097
G1 X251.945 Y34.966 E15.6103
G1 X252.397 Y35.294 E15.6520
G1 X252.403 Y35.299 E15.6526
G1 X253.424 Y36.171 E15.7531
G1 X253.429 Y36.176 E15.7537
G1 X253.824 Y36.570 E15.7954
G1 X253.829 Y36.576 E15.7960
G1 X254.701 Y37.597 E15.8965
G1 X254.706 Y37.603 E15.8971
G1 X255.034 Y38.055 E15.9388
G1 X255.038 Y38.061 E15.9394
G1 X255.740 Y39.206 E16.0399
G1 X255.744 Y39.213 E16.0405
G1 X255.997 Y39.710 E16.0822
G1 X256.000 Y39.717 E16.0828
G1 X256.514 Y40.957 E16.1833
G1 X256.517 Y40.965 E16.1838
G1 X256.689 Y41.495 E16.2256
G1 X256.691 Y41.503 E16.2262
G1 X257.005 Y42.808 E16.3267
G1 X257.006 Y42.816 E16.3272
G1 X257.093 Y43.367 E16.3690
G1 X257.094 Y43.375 E16.3696
G1 X257.189 Y44.574 E16.4596
G1 X257.189 Y44.578 E16.4599
G1 X257.200 Y44.857 E16.4808
G1 X257.200 Y44.861 E16.4811
G1 X257.200 Y155.139 E24.7338
G1 X257.200 Y155.143 E24.7341
G1 X257.189 Y155.422 E24.7550
G1 X257.189 Y155.426 E24.7553
G1 X257.094 Y156.625 E24.8453
G1 X257.093 Y156.633 E24.8459
G1 X257.006 Y157.184 E24.8876
G1 X257.005 Y157.192 E24.8882
G1 X256.691 Y158.497 E24.9887
G1 X256.689 Y158.505 E24.9893
G1 X256.517 Y159.035 E25.0310
G1 X256.514 Y159.043 E25.0316
G1 X256.000 Y160.283 E25.1321
G1 X255.997 Y160.290 E25.1327
G1 X255.744 Y160.787 E25.1744
G1 X255.740 Y160.794 E25.1750
G1 X255.038 Y161.939 E25.2755
G1 X255.034 Y161.945 E25.2761
G1 X254.706 Y162.397 E25.3178
G1 X254.701 Y162.403 E25.3184
G1 X253.829 Y163.424 E25.4189
G1 X253.824 Y163.430 E25.4195
G1 X253.429 Y163.824 E25.4612
G1 X253.424 Y163.829 E25.4618
G1 X252.403 Y164.701 E25.5623
G1 X252.397 Y164.706 E25.5629
G1 X251.945 Y165.034 E25.6046
G1 X251.939 Y165.038 E25.6052
G1 X250.794 Y165.740 E25.7057
G1 X250.787 Y165.744 E25.7062
G1 X250.290 Y165.997 E25.7480
G1 X250.283 Y166.000 E25.7486
G1 X249.043 Y166.514 E25.8491
G1 X249.035 Y166.517 E25.8496
G1 X248.505 Y166.689 E25.8914
G1 X248.497 Y166.691 E25.8920
G1 X247.192 Y167.005 E25.9925
G1 X247.184 Y167.006 E25.9930
G1 X246.633 Y167.093 E26.0348
G1 X246.625 Y167.094 E26.0354
G1 X245.426 Y167.189 E26.1254
G1 X245.422 Y167.189 E26.1257
G1 X245.143 Y167.200 E26.1466
G1 X245.139 Y167.200 E26.1469
G1 X54.861 Y167.200 E40.3864
G1 X54.857 Y167.200 E40.3867
G1 X54.578 Y167.189 E40.4076
G1 X54.574 Y167.189 E40.4079
G1 X53.375 Y167.094 E40.4979
G1 X53.367 Y167.093 E40.4985
G1 X52.816 Y167.006 E40.5403
G1 X52.808 Y167.005 E40.5409
G1 X51.503 Y166.691 E40.6413
G1 X51.495 Y166.689 E40.6419
G1 X50.965 Y166.517 E40.6836
G1 X50.957 Y166.514 E40.6842
G1 X49.717 Y166.000 E40.7847
G1 X49.710 Y165.997 E40.7853
G1 X49.213 Y165.744 E40.8271
G1 X49.206 Y165.740 E40.8276
G1 X48.061 Y165.038 E40.9281
G1 X48.055 Y165.034 E40.9287
G1 X47.603 Y164.706 E40.9704
G1 X47.597 Y164.701 E40.9710
G1 X46.576 Y163.829 E41.0715
G1 X46.571 Y163.824 E41.0721
G1 X46.176 Y163.429 E41.1138
G1 X46.171 Y163.424 E41.1144
G1 X45.299 Y162.403 E41.2149
G1 X45.294 Y162.397 E41.2155
G1 X44.966 Y161.945 E41.2572
G1 X44.962 Y161.939 E41.2578
G1 X44.260 Y160.794 E41.3583
G1 X44.256 Y160.787 E41.3589
G1 X44.003 Y160.290 E41.4006
G1 X44.000 Y160.283 E41.4012
G1 X43.486 Y159.043 E41.5017
G1 X43.483 Y159.035 E41.5023
G1 X43.311 Y158.505 E41.5440
G1 X43.309 Y158.497 E41.5446
G1 X42.995 Y157.192 E41.6451
G1 X42.994 Y157.184 E41.6457
G1 X42.907 Y156.633 E41.6874
G1 X42.906 Y156.625 E41.6880
G1 X42.811 Y155.426 E41.7780
G1 X42.811 Y155.422 E41.7783
G1 X42.800 Y155.143 E41.7992
G1 X42.800 Y155.139 E41.7995
G1 X42.800 Y44.861 E50.0522
G1 X42.800 Y44.857 E50.0525
G1 X42.811 Y44.578 E50.0734
G1 X42.811 Y44.574 E50.0737
G1 X42.906 Y43.375 E50.1637
G1 X42.907 Y43.367 E50.1643
G1 X42.994 Y42.816 E50.2061
G1 X42.995 Y42.808 E50.2066
G1 X43.309 Y41.503 E50.3071
G1 X43.311 Y41.495 E50.3077
G1 X43.483 Y40.965 E50.3494
G1 X43.486 Y40.957 E50.3500
G1 X44.000 Y39.717 E50.4505
G1 X44.003 Y39.710 E50.4511
G1 X44.256 Y39.213 E50.4928
G1 X44.260 Y39.206 E50.4934
G1 X44.962 Y38.061 E50.5939
G1 X44.966 Y38.055 E50.5945
G1 X45.294 Y37.603 E50.6362
G1 X45.299 Y37.597 E50.6368
G92 E0
G1 E-1.0000 F1800
; tool H0.500 W0.800
; raft
G1 X48.912 Y40.450 F4800
G1 E0.0000 F1800
