; G-Code generated by Simplify3D(R) Version 4.0.1
; Sep 25, 2022 at 6:21:24 PM
; Settings Summary
;   processName,Process1
;   applyToModels,?? - ??,µ×°å - ¸±±¾
;   profileName,Default (modified)
;   profileVersion,2017-03-01 08:00:00
;   baseProfile,
;   printMaterial,ABS
;   printQuality,Medium
;   printExtruders,
;   extruderName,Primary Extruder
;   extruderToolheadNumber,0
;   extruderDiameter,0.4
;   extruderAutoWidth,0
;   extruderWidth,0.4
;   extrusionMultiplier,1
;   extruderUseRetract,1
;   extruderRetractionDistance,1
;   extruderExtraRestartDistance,0
;   extruderRetractionZLift,0
;   extruderRetractionSpeed,1800
;   extruderUseCoasting,0
;   extruderCoastingDistance,0.2
;   extruderUseWipe,0
;   extruderWipeDistance,5
;   primaryExtruder,0
;   layerHeight,0.2
;   topSolidLayers,3
;   bottomSolidLayers,3
;   perimeterOutlines,2
;   printPerimetersInsideOut,1
;   startPointOption,2
;   startPointOriginX,0
;   startPointOriginY,0
;   sequentialIslands,0
;   spiralVaseMode,0
;   firstLayerHeightPercentage,90
;   firstLayerWidthPercentage,100
;   firstLayerUnderspeed,0.5
;   useRaft,1
;   raftExtruder,0
;   raftTopLayers,3
;   raftBaseLayers,2
;   raftOffset,3
;   raftSeparationDistance,0.14
;   raftTopInfill,100
;   aboveRaftSpeedMultiplier,0.3
;   useSkirt,1
;   skirtExtruder,0
;   skirtLayers,1
;   skirtOutlines,2
;   skirtOffset,4
;   usePrimePillar,0
;   primePillarExtruder,999
;   primePillarWidth,12
;   primePillarLocation,7
;   primePillarSpeedMultiplier,1
;   useOozeShield,0
;   oozeShieldExtruder,999
;   oozeShieldOffset,2
;   oozeShieldOutlines,1
;   oozeShieldSidewallShape,1
;   oozeShieldSidewallAngle,30
;   oozeShieldSpeedMultiplier,1
;   infillExtruder,0
;   internalInfillPattern,Rectilinear
;   externalInfillPattern,Rectilinear
;   infillPercentage,40
;   outlineOverlapPercentage,15
;   infillExtrusionWidthPercentage,100
;   minInfillLength,5
;   infillLayerInterval,1
;   internalInfillAngles,45,-45
;   overlapInternalInfillAngles,0
;   externalInfillAngles,45,-45
;   generateSupport,1
;   supportExtruder,0
;   supportInfillPercentage,30
;   supportExtraInflation,0
;   supportBaseLayers,0
;   denseSupportExtruder,0
;   denseSupportLayers,0
;   denseSupportInfillPercentage,70
;   supportLayerInterval,1
;   supportHorizontalPartOffset,0.3
;   supportUpperSeparationLayers,1
;   supportLowerSeparationLayers,1
;   supportType,0
;   supportGridSpacing,4
;   maxOverhangAngle,45
;   supportAngles,0
;   temperatureName,Primary Extruder
;   temperatureNumber,0
;   temperatureSetpointCount,1
;   temperatureSetpointLayers,1
;   temperatureSetpointTemperatures,225
;   temperatureStabilizeAtStartup,1
;   temperatureHeatedBed,0
;   temperatureRelayBetweenLayers,0
;   temperatureRelayBetweenLoops,0
;   fanLayers,1
;   fanSpeeds,0
;   blipFanToFullPower,0
;   adjustSpeedForCooling,1
;   minSpeedLayerTime,15
;   minCoolingSpeedSlowdown,20
;   increaseFanForCooling,0
;   minFanLayerTime,45
;   maxCoolingFanSpeed,100
;   increaseFanForBridging,0
;   bridgingFanSpeed,100
;   use5D,1
;   relativeEdistances,0
;   allowEaxisZeroing,1
;   independentExtruderAxes,0
;   includeM10123,0
;   stickySupport,1
;   applyToolheadOffsets,0
;   gcodeXoffset,0
;   gcodeYoffset,0
;   gcodeZoffset,0
;   overrideMachineDefinition,0
;   machineTypeOverride,0
;   strokeXoverride,200
;   strokeYoverride,200
;   strokeZoverride,200
;   originOffsetXoverride,0
;   originOffsetYoverride,0
;   originOffsetZoverride,0
;   homeXdirOverride,-1
;   homeYdirOverride,-1
;   homeZdirOverride,-1
;   flipXoverride,1
;   flipYoverride,-1
;   flipZoverride,1
;   toolheadOffsets,0,0|0,0|0,0|0,0|0,0|0,0
;   overrideFirmwareConfiguration,0
;   firmwareTypeOverride,RepRap (Marlin/Repetier/Sprinter)
;   GPXconfigOverride,r2
;   baudRateOverride,115200
;   overridePrinterModels,0
;   printerModelsOverride
;   startingGcode,G28 ; home all axes
;   layerChangeGcode,
;   retractionGcode,
;   toolChangeGcode,
;   endingGcode,M104 S0 ; turn off extruder,M140 S0 ; turn off bed,M84 ; disable motors
;   exportFileFormat,gcode
;   celebration,0
;   celebrationSong,Random Song
;   postProcessing,
;   defaultSpeed,3600
;   outlineUnderspeed,0.5
;   solidInfillUnderspeed,0.8
;   supportUnderspeed,0.8
;   rapidXYspeed,4800
;   rapidZspeed,1000
;   minBridgingArea,50
;   bridgingExtraInflation,0
;   bridgingExtrusionMultiplier,1
;   bridgingSpeedMultiplier,1
;   useFixedBridgingAngle,0
;   fixedBridgingAngle,0
;   applyBridgingToPerimeters,0
;   filamentDiameters,1.75|1.75|1.75|1.75|1.75|1.75
;   filamentPricesPerKg,46|46|46|46|46|46
;   filamentDensities,1.25|1.25|1.25|1.25|1.25|1.25
;   useMinPrintHeight,0
;   minPrintHeight,0
;   useMaxPrintHeight,0
;   maxPrintHeight,0
;   useDiaphragm,0
;   diaphragmLayerInterval,20
;   robustSlicing,1
;   mergeAllIntoSolid,0
;   onlyRetractWhenCrossingOutline,1
;   retractBetweenLayers,1
;   useRetractionMinTravel,0
;   retractionMinTravel,3
;   retractWhileWiping,0
;   onlyWipeOutlines,1
;   avoidCrossingOutline,0
;   maxMovementDetourFactor,3
;   toolChangeRetractionDistance,12
;   toolChangeExtraRestartDistance,-0.5
;   toolChangeRetractionSpeed,600
;   externalThinWallType,0
;   internalThinWallType,2
;   thinWallAllowedOverlapPercentage,10
;   singleExtrusionMinLength,1
;   singleExtrusionMinPrintingWidthPercentage,50
;   singleExtrusionMaxPrintingWidthPercentage,200
;   singleExtrusionEndpointExtension,0.2
;   horizontalSizeCompensation,0
G90
M82
M106 S0
M104 S225 T0
M109 S225 T0
G28 ; home all axes
G92 E0
G1 E-1.0000 F1800
G1 Z0.450 F1000
; process Process1
; layer 1, Z = 0.450
T0
; tool H0.500 W0.400
; skirt
G1 X44.990 Y37.343 F4800
G1 E0.0000 F540
G92 E0
G1 X45.872 Y36.311 E0.1129 F1800
G1 X45.888 Y36.293 E0.1149
G1 X46.293 Y35.888 E0.1626
G1 X46.311 Y35.872 E0.1645
G1 X47.343 Y34.990 E0.2775
G1 X47.362 Y34.975 E0.2794
G1 X47.826 Y34.638 E0.3271
G1 X47.845 Y34.625 E0.3291
G1 X49.004 Y33.915 E0.4420
G1 X49.024 Y33.904 E0.4440
G1 X49.535 Y33.643 E0.4917
G1 X49.557 Y33.633 E0.4937
G1 X50.812 Y33.113 E0.6066
G1 X50.834 Y33.105 E0.6085
G1 X51.379 Y32.928 E0.6562
G1 X51.402 Y32.922 E0.6582
G1 X52.722 Y32.605 E0.7711
G1 X52.746 Y32.600 E0.7731
G1 X53.312 Y32.510 E0.8208
G1 X53.336 Y32.507 E0.8228
G1 X54.547 Y32.412 E0.9238
G1 X54.559 Y32.411 E0.9248
G1 X54.845 Y32.400 E0.9486
G1 X54.857 Y32.400 E0.9496
G1 X245.143 Y32.400 E16.7720
G1 X245.155 Y32.400 E16.7729
G1 X245.441 Y32.411 E16.7968
G1 X245.453 Y32.412 E16.7978
G1 X246.664 Y32.507 E16.8988
G1 X246.688 Y32.510 E16.9007
G1 X247.254 Y32.600 E16.9484
G1 X247.278 Y32.605 E16.9504
G1 X248.598 Y32.922 E17.0633
G1 X248.621 Y32.928 E17.0653
G1 X249.166 Y33.105 E17.1130
G1 X249.189 Y33.113 E17.1149
G1 X250.443 Y33.633 E17.2279
G1 X250.465 Y33.643 E17.2298
G1 X250.976 Y33.904 E17.2775
G1 X250.997 Y33.915 E17.2795
G1 X252.155 Y34.625 E17.3924
G1 X252.174 Y34.638 E17.3944
G1 X252.638 Y34.975 E17.4421
G1 X252.657 Y34.990 E17.4440
G1 X253.689 Y35.872 E17.5570
G1 X253.707 Y35.888 E17.5589
G1 X254.112 Y36.293 E17.6066
G1 X254.128 Y36.310 E17.6086
G1 X255.010 Y37.343 E17.7215
G1 X255.025 Y37.362 E17.7235
G1 X255.362 Y37.826 E17.7712
G1 X255.375 Y37.846 E17.7732
G1 X256.085 Y39.004 E17.8861
G1 X256.097 Y39.024 E17.8881
G1 X256.357 Y39.535 E17.9357
G1 X256.367 Y39.557 E17.9377
G1 X256.886 Y40.811 E18.0506
G1 X256.895 Y40.834 E18.0526
G1 X257.072 Y41.379 E18.1003
G1 X257.078 Y41.402 E18.1022
G1 X257.395 Y42.722 E18.2152
G1 X257.400 Y42.746 E18.2171
G1 X257.490 Y43.312 E18.2648
G1 X257.493 Y43.336 E18.2668
G1 X257.588 Y44.547 E18.3678
G1 X257.589 Y44.558 E18.3688
G1 X257.600 Y44.845 E18.3926
G1 X257.600 Y44.857 E18.3936
G1 X257.600 Y155.143 E27.5640
G1 X257.600 Y155.155 E27.5650
G1 X257.589 Y155.442 E27.5888
G1 X257.588 Y155.453 E27.5898
G1 X257.493 Y156.664 E27.6908
G1 X257.490 Y156.688 E27.6928
G1 X257.400 Y157.254 E27.7405
G1 X257.395 Y157.277 E27.7424
G1 X257.078 Y158.598 E27.8554
G1 X257.072 Y158.621 E27.8573
G1 X256.895 Y159.167 E27.9050
G1 X256.886 Y159.189 E27.9070
G1 X256.367 Y160.443 E28.0199
G1 X256.357 Y160.465 E28.0219
G1 X256.097 Y160.976 E28.0695
G1 X256.085 Y160.996 E28.0715
G1 X255.375 Y162.154 E28.1844
G1 X255.362 Y162.174 E28.1864
G1 X255.025 Y162.638 E28.2341
G1 X255.010 Y162.657 E28.2361
G1 X254.128 Y163.690 E28.3490
G1 X254.112 Y163.707 E28.3510
G1 X253.707 Y164.112 E28.3987
G1 X253.689 Y164.128 E28.4006
G1 X252.657 Y165.010 E28.5136
G1 X252.638 Y165.025 E28.5155
G1 X252.174 Y165.362 E28.5632
G1 X252.154 Y165.375 E28.5652
G1 X250.996 Y166.085 E28.6781
G1 X250.976 Y166.096 E28.6801
G1 X250.465 Y166.357 E28.7277
G1 X250.443 Y166.367 E28.7297
G1 X249.189 Y166.886 E28.8426
G1 X249.167 Y166.895 E28.8446
G1 X248.621 Y167.072 E28.8923
G1 X248.598 Y167.078 E28.8943
G1 X247.278 Y167.395 E29.0072
G1 X247.254 Y167.400 E29.0092
G1 X246.688 Y167.490 E29.0569
G1 X246.664 Y167.493 E29.0588
G1 X245.453 Y167.588 E29.1598
G1 X245.442 Y167.589 E29.1608
G1 X245.155 Y167.600 E29.1847
G1 X245.143 Y167.600 E29.1856
G1 X54.857 Y167.600 E45.0080
G1 X54.845 Y167.600 E45.0090
G1 X54.558 Y167.589 E45.0329
G1 X54.547 Y167.588 E45.0338
G1 X53.336 Y167.493 E45.1348
G1 X53.312 Y167.490 E45.1368
G1 X52.746 Y167.400 E45.1845
G1 X52.722 Y167.395 E45.1865
G1 X51.402 Y167.078 E45.2994
G1 X51.379 Y167.072 E45.3014
G1 X50.834 Y166.895 E45.3491
G1 X50.811 Y166.886 E45.3510
G1 X49.557 Y166.367 E45.4640
G1 X49.535 Y166.357 E45.4659
G1 X49.024 Y166.096 E45.5136
G1 X49.004 Y166.085 E45.5156
G1 X47.846 Y165.375 E45.6285
G1 X47.826 Y165.362 E45.6305
G1 X47.362 Y165.025 E45.6782
G1 X47.343 Y165.010 E45.6801
G1 X46.311 Y164.128 E45.7931
G1 X46.293 Y164.112 E45.7950
G1 X45.888 Y163.707 E45.8427
G1 X45.872 Y163.689 E45.8447
G1 X44.990 Y162.657 E45.9576
G1 X44.975 Y162.638 E45.9596
G1 X44.638 Y162.174 E46.0073
G1 X44.625 Y162.155 E46.0092
G1 X43.915 Y160.996 E46.1222
G1 X43.904 Y160.976 E46.1241
G1 X43.643 Y160.465 E46.1718
G1 X43.633 Y160.443 E46.1738
G1 X43.113 Y159.188 E46.2867
G1 X43.105 Y159.166 E46.2887
G1 X42.928 Y158.621 E46.3364
G1 X42.922 Y158.598 E46.3383
G1 X42.605 Y157.277 E46.4513
G1 X42.600 Y157.254 E46.4532
G1 X42.510 Y156.688 E46.5009
G1 X42.507 Y156.664 E46.5029
G1 X42.412 Y155.453 E46.6039
G1 X42.411 Y155.442 E46.6049
G1 X42.400 Y155.155 E46.6287
G1 X42.400 Y155.143 E46.6297
G1 X42.400 Y44.857 E55.8001
G1 X42.400 Y44.845 E55.8010
G1 X42.411 Y44.558 E55.8249
G1 X42.412 Y44.547 E55.8259
G1 X42.507 Y43.336 E55.9269
G1 X42.510 Y43.312 E55.9288
G1 X42.600 Y42.746 E55.9765
G1 X42.605 Y42.722 E55.9785
G1 X42.922 Y41.402 E56.0914
G1 X42.928 Y41.379 E56.0934
G1 X43.105 Y40.834 E56.1411
G1 X43.113 Y40.812 E56.1430
G1 X43.633 Y39.557 E56.2560
G1 X43.643 Y39.535 E56.2579
G1 X43.904 Y39.024 E56.3056
G1 X43.915 Y39.004 E56.3076
G1 X44.625 Y37.845 E56.4205
G1 X44.638 Y37.826 E56.4225
G1 X44.975 Y37.362 E56.4702
G1 X44.990 Y37.343 E56.4722
G92 E0
G1 E-1.0000 F1800
G1 X45.299 Y37.597 F4800
G1 E0.0000 F1800
G92 E0
G1 X46.171 Y36.576 E0.1116 F1800
G1 X46.176 Y36.571 E0.1123
G1 X46.571 Y36.176 E0.1587
G1 X46.576 Y36.171 E0.1593
G1 X47.597 Y35.299 E0.2709
G1 X47.603 Y35.294 E0.2716
G1 X48.055 Y34.966 E0.3180
G1 X48.061 Y34.962 E0.3186
G1 X49.206 Y34.260 E0.4303
G1 X49.213 Y34.256 E0.4309
G1 X49.710 Y34.003 E0.4773
G1 X49.717 Y34.000 E0.4780
G1 X50.957 Y33.486 E0.5896
G1 X50.965 Y33.483 E0.5903
G1 X51.495 Y33.311 E0.6366
G1 X51.503 Y33.309 E0.6373
G1 X52.808 Y32.995 E0.7489
G1 X52.816 Y32.994 E0.7496
G1 X53.367 Y32.907 E0.7960
G1 X53.375 Y32.906 E0.7966
G1 X54.574 Y32.811 E0.8967
G1 X54.578 Y32.811 E0.8970
G1 X54.857 Y32.800 E0.9202
G1 X54.861 Y32.800 E0.9205
G1 X245.139 Y32.800 E16.7422
G1 X245.143 Y32.800 E16.7426
G1 X245.422 Y32.811 E16.7657
G1 X245.426 Y32.811 E16.7661
G1 X246.625 Y32.906 E16.8661
G1 X246.633 Y32.907 E16.8668
G1 X247.184 Y32.994 E16.9132
G1 X247.192 Y32.995 E16.9138
G1 X248.497 Y33.309 E17.0254
G1 X248.505 Y33.311 E17.0261
G1 X249.035 Y33.483 E17.0725
G1 X249.043 Y33.486 E17.0731
G1 X250.283 Y34.000 E17.1848
G1 X250.290 Y34.003 E17.1854
G1 X250.787 Y34.256 E17.2318
G1 X250.794 Y34.260 E17.2325
G1 X251.939 Y34.962 E17.3441
G1 X251.945 Y34.966 E17.3448
G1 X252.397 Y35.294 E17.3911
G1 X252.403 Y35.299 E17.3918
G1 X253.424 Y36.171 E17.5034
G1 X253.429 Y36.176 E17.5041
G1 X253.824 Y36.570 E17.5504
G1 X253.829 Y36.576 E17.5511
G1 X254.701 Y37.597 E17.6627
G1 X254.706 Y37.603 E17.6634
G1 X255.034 Y38.055 E17.7098
G1 X255.038 Y38.061 E17.7105
G1 X255.740 Y39.206 E17.8221
G1 X255.744 Y39.213 E17.8227
G1 X255.997 Y39.710 E17.8691
G1 X256.000 Y39.717 E17.8698
G1 X256.514 Y40.957 E17.9814
G1 X256.517 Y40.965 E17.9821
G1 X256.689 Y41.495 E18.0284
G1 X256.691 Y41.503 E18.0291
G1 X257.005 Y42.808 E18.1407
G1 X257.006 Y42.816 E18.1414
G1 X257.093 Y43.367 E18.1878
G1 X257.094 Y43.375 E18.1884
G1 X257.189 Y44.574 E18.2885
G1 X257.189 Y44.578 E18.2888
G1 X257.200 Y44.857 E18.3120
G1 X257.200 Y44.861 E18.3123
G1 X257.200 Y155.139 E27.4820
G1 X257.200 Y155.143 E27.4823
G1 X257.189 Y155.422 E27.5055
G1 X257.189 Y155.426 E27.5059
G1 X257.094 Y156.625 E27.6059
G1 X257.093 Y156.633 E27.6065
G1 X257.006 Y157.184 E27.6529
G1 X257.005 Y157.192 E27.6536
G1 X256.691 Y158.497 E27.7652
G1 X256.689 Y158.505 E27.7659
G1 X256.517 Y159.035 E27.8123
G1 X256.514 Y159.043 E27.8129
G1 X256.000 Y160.283 E27.9245
G1 X255.997 Y160.290 E27.9252
G1 X255.744 Y160.787 E27.9716
G1 X255.740 Y160.794 E27.9722
G1 X255.038 Y161.939 E28.0839
G1 X255.034 Y161.945 E28.0845
G1 X254.706 Y162.397 E28.1309
G1 X254.701 Y162.403 E28.1316
G1 X253.829 Y163.424 E28.2432
G1 X253.824 Y163.430 E28.2439
G1 X253.429 Y163.824 E28.2903
G1 X253.424 Y163.829 E28.2909
G1 X252.403 Y164.701 E28.4025
G1 X252.397 Y164.706 E28.4032
G1 X251.945 Y165.034 E28.4496
G1 X251.939 Y165.038 E28.4502
G1 X250.794 Y165.740 E28.5618
G1 X250.787 Y165.744 E28.5625
G1 X250.290 Y165.997 E28.6089
G1 X250.283 Y166.000 E28.6095
G1 X249.043 Y166.514 E28.7212
G1 X249.036 Y166.517 E28.7218
G1 X248.505 Y166.689 E28.7682
G1 X248.497 Y166.691 E28.7689
G1 X247.192 Y167.005 E28.8805
G1 X247.184 Y167.006 E28.8812
G1 X246.633 Y167.093 E28.9275
G1 X246.625 Y167.094 E28.9282
G1 X245.426 Y167.189 E29.0282
G1 X245.422 Y167.189 E29.0286
G1 X245.143 Y167.200 E29.0517
G1 X245.139 Y167.200 E29.0521
G1 X54.861 Y167.200 E44.8738
G1 X54.857 Y167.200 E44.8741
G1 X54.578 Y167.189 E44.8973
G1 X54.574 Y167.189 E44.8977
G1 X53.375 Y167.094 E44.9977
G1 X53.367 Y167.093 E44.9983
G1 X52.816 Y167.006 E45.0447
G1 X52.808 Y167.005 E45.0454
G1 X51.503 Y166.691 E45.1570
G1 X51.495 Y166.689 E45.1577
G1 X50.965 Y166.517 E45.2041
G1 X50.957 Y166.514 E45.2047
G1 X49.717 Y166.000 E45.3163
G1 X49.710 Y165.997 E45.3170
G1 X49.213 Y165.744 E45.3634
G1 X49.206 Y165.740 E45.3640
G1 X48.061 Y165.038 E45.4757
G1 X48.055 Y165.034 E45.4763
G1 X47.603 Y164.706 E45.5227
G1 X47.597 Y164.701 E45.5234
G1 X46.576 Y163.829 E45.6350
G1 X46.571 Y163.824 E45.6357
G1 X46.176 Y163.429 E45.6820
G1 X46.171 Y163.424 E45.6827
G1 X45.299 Y162.403 E45.7943
G1 X45.294 Y162.397 E45.7950
G1 X44.966 Y161.945 E45.8414
G1 X44.962 Y161.939 E45.8420
G1 X44.260 Y160.794 E45.9536
G1 X44.256 Y160.787 E45.9543
G1 X44.003 Y160.290 E46.0007
G1 X44.000 Y160.283 E46.0013
G1 X43.486 Y159.043 E46.1130
G1 X43.483 Y159.035 E46.1136
G1 X43.311 Y158.505 E46.1600
G1 X43.309 Y158.497 E46.1607
G1 X42.995 Y157.192 E46.2723
G1 X42.994 Y157.184 E46.2730
G1 X42.907 Y156.633 E46.3194
G1 X42.906 Y156.625 E46.3200
G1 X42.811 Y155.426 E46.4200
G1 X42.811 Y155.422 E46.4204
G1 X42.800 Y155.143 E46.4435
G1 X42.800 Y155.139 E46.4439
G1 X42.800 Y44.861 E55.6136
G1 X42.800 Y44.857 E55.6139
G1 X42.811 Y44.578 E55.6371
G1 X42.811 Y44.574 E55.6374
G1 X42.906 Y43.375 E55.7375
G1 X42.907 Y43.367 E55.7381
G1 X42.994 Y42.816 E55.7845
G1 X42.995 Y42.808 E55.7852
G1 X43.309 Y41.503 E55.8968
G1 X43.311 Y41.495 E55.8974
G1 X43.483 Y40.965 E55.9438
G1 X43.486 Y40.957 E55.9445
G1 X44.000 Y39.717 E56.0561
G1 X44.003 Y39.710 E56.0568
G1 X44.256 Y39.213 E56.1032
G1 X44.260 Y39.206 E56.1038
G1 X44.962 Y38.061 E56.2154
G1 X44.966 Y38.055 E56.2161
G1 X45.294 Y37.603 E56.2625
G1 X45.299 Y37.597 E56.2631
G92 E0
G1 E-1.0000 F1800
; tool H0.500 W0.800
; raft
G1 X48.912 Y40.450 F4800
G1 E0.0000 F1800
