; G-Code generated by Simplify3D(R) Version 4.0.1
; Oct 5, 2022 at 4:42:58 PM
; Settings Summary
;   processName,Process1
;   applyToModels,长度件,长度件(2)
;   profileName,Default (modified)
;   profileVersion,2017-03-01 08:00:00
;   baseProfile,
;   printMaterial,PLA
;   printQuality,Medium
;   printExtruders,
;   extruderName,Primary Extruder
;   extruderToolheadNumber,0
;   extruderDiameter,0.4
;   extruderAutoWidth,0
;   extruderWidth,0.4
;   extrusionMultiplier,0.9
;   extruderUseRetract,1
;   extruderRetractionDistance,1
;   extruderExtraRestartDistance,0
;   extruderRetractionZLift,0
;   extruderRetractionSpeed,1800
;   extruderUseCoasting,0
;   extruderCoastingDistance,0.2
;   extruderUseWipe,0
;   extruderWipeDistance,5
;   primaryExtruder,0
;   layerHeight,0.2
;   topSolidLayers,3
;   bottomSolidLayers,3
;   perimeterOutlines,2
;   printPerimetersInsideOut,1
;   startPointOption,2
;   startPointOriginX,0
;   startPointOriginY,0
;   sequentialIslands,0
;   spiralVaseMode,0
;   firstLayerHeightPercentage,90
;   firstLayerWidthPercentage,100
;   firstLayerUnderspeed,0.5
;   useRaft,1
;   raftExtruder,0
;   raftTopLayers,3
;   raftBaseLayers,2
;   raftOffset,3
;   raftSeparationDistance,0.14
;   raftTopInfill,100
;   aboveRaftSpeedMultiplier,0.3
;   useSkirt,1
;   skirtExtruder,0
;   skirtLayers,1
;   skirtOutlines,2
;   skirtOffset,4
;   usePrimePillar,0
;   primePillarExtruder,999
;   primePillarWidth,12
;   primePillarLocation,7
;   primePillarSpeedMultiplier,1
;   useOozeShield,0
;   oozeShieldExtruder,999
;   oozeShieldOffset,2
;   oozeShieldOutlines,1
;   oozeShieldSidewallShape,1
;   oozeShieldSidewallAngle,30
;   oozeShieldSpeedMultiplier,1
;   infillExtruder,0
;   internalInfillPattern,Rectilinear
;   externalInfillPattern,Rectilinear
;   infillPercentage,50
;   outlineOverlapPercentage,15
;   infillExtrusionWidthPercentage,100
;   minInfillLength,5
;   infillLayerInterval,1
;   internalInfillAngles,45,-45
;   overlapInternalInfillAngles,0
;   externalInfillAngles,45,-45
;   generateSupport,1
;   supportExtruder,0
;   supportInfillPercentage,30
;   supportExtraInflation,0
;   supportBaseLayers,0
;   denseSupportExtruder,0
;   denseSupportLayers,0
;   denseSupportInfillPercentage,70
;   supportLayerInterval,1
;   supportHorizontalPartOffset,0.3
;   supportUpperSeparationLayers,1
;   supportLowerSeparationLayers,1
;   supportType,0
;   supportGridSpacing,4
;   maxOverhangAngle,45
;   supportAngles,0
;   temperatureName,Primary Extruder
;   temperatureNumber,0
;   temperatureSetpointCount,1
;   temperatureSetpointLayers,1
;   temperatureSetpointTemperatures,190
;   temperatureStabilizeAtStartup,1
;   temperatureHeatedBed,0
;   temperatureRelayBetweenLayers,0
;   temperatureRelayBetweenLoops,0
;   fanLayers,1,2
;   fanSpeeds,0,100
;   blipFanToFullPower,0
;   adjustSpeedForCooling,1
;   minSpeedLayerTime,15
;   minCoolingSpeedSlowdown,20
;   increaseFanForCooling,0
;   minFanLayerTime,45
;   maxCoolingFanSpeed,100
;   increaseFanForBridging,0
;   bridgingFanSpeed,100
;   use5D,1
;   relativeEdistances,0
;   allowEaxisZeroing,1
;   independentExtruderAxes,0
;   includeM10123,0
;   stickySupport,1
;   applyToolheadOffsets,0
;   gcodeXoffset,0
;   gcodeYoffset,0
;   gcodeZoffset,0
;   overrideMachineDefinition,0
;   machineTypeOverride,0
;   strokeXoverride,200
;   strokeYoverride,200
;   strokeZoverride,200
;   originOffsetXoverride,0
;   originOffsetYoverride,0
;   originOffsetZoverride,0
;   homeXdirOverride,-1
;   homeYdirOverride,-1
;   homeZdirOverride,-1
;   flipXoverride,1
;   flipYoverride,-1
;   flipZoverride,1
;   toolheadOffsets,0,0|0,0|0,0|0,0|0,0|0,0
;   overrideFirmwareConfiguration,0
;   firmwareTypeOverride,RepRap (Marlin/Repetier/Sprinter)
;   GPXconfigOverride,r2
;   baudRateOverride,115200
;   overridePrinterModels,0
;   printerModelsOverride
;   startingGcode,G28 ; home all axes
;   layerChangeGcode,
;   retractionGcode,
;   toolChangeGcode,
;   endingGcode,M104 S0 ; turn off extruder,M140 S0 ; turn off bed,M84 ; disable motors
;   exportFileFormat,gcode
;   celebration,0
;   celebrationSong,Random Song
;   postProcessing,
;   defaultSpeed,3600
;   outlineUnderspeed,0.5
;   solidInfillUnderspeed,0.8
;   supportUnderspeed,0.8
;   rapidXYspeed,4800
;   rapidZspeed,1000
;   minBridgingArea,50
;   bridgingExtraInflation,0
;   bridgingExtrusionMultiplier,1
;   bridgingSpeedMultiplier,1
;   useFixedBridgingAngle,0
;   fixedBridgingAngle,0
;   applyBridgingToPerimeters,0
;   filamentDiameters,1.75|1.75|1.75|1.75|1.75|1.75
;   filamentPricesPerKg,46|46|46|46|46|46
;   filamentDensities,1.25|1.25|1.25|1.25|1.25|1.25
;   useMinPrintHeight,0
;   minPrintHeight,0
;   useMaxPrintHeight,0
;   maxPrintHeight,0
;   useDiaphragm,0
;   diaphragmLayerInterval,20
;   robustSlicing,1
;   mergeAllIntoSolid,0
;   onlyRetractWhenCrossingOutline,1
;   retractBetweenLayers,1
;   useRetractionMinTravel,0
;   retractionMinTravel,3
;   retractWhileWiping,0
;   onlyWipeOutlines,1
;   avoidCrossingOutline,0
;   maxMovementDetourFactor,3
;   toolChangeRetractionDistance,12
;   toolChangeExtraRestartDistance,-0.5
;   toolChangeRetractionSpeed,600
;   externalThinWallType,0
;   internalThinWallType,2
;   thinWallAllowedOverlapPercentage,10
;   singleExtrusionMinLength,1
;   singleExtrusionMinPrintingWidthPercentage,50
;   singleExtrusionMaxPrintingWidthPercentage,200
;   singleExtrusionEndpointExtension,0.2
;   horizontalSizeCompensation,0
G90
M82
M106 S0
M104 S190 T0
M109 S190 T0
G28 ; home all axes
G92 E0
G1 E-1.0000 F1800
G1 Z0.450 F1000
; process Process1
; layer 1, Z = 0.450
T0
; tool H0.500 W0.400
; skirt
G1 X104.749 Y71.761 F4800
G1 E0.0000 F540
G92 E0
G1 X109.018 Y67.491 E0.4518 F1800
G1 X109.239 Y67.400 E0.4697
G1 X121.077 Y67.400 E1.3556
G1 X121.297 Y67.491 E1.3735
G1 X121.497 Y67.691 E1.3946
G1 X121.697 Y67.491 E1.4158
G1 X121.918 Y67.400 E1.4337
G1 X133.756 Y67.400 E2.3196
G1 X133.976 Y67.491 E2.3374
G1 X135.753 Y69.267 E2.5254
G1 X137.529 Y67.491 E2.7134
G1 X137.749 Y67.400 E2.7312
G1 X149.575 Y67.400 E3.6162
G1 X149.796 Y67.491 E3.6341
G1 X150.000 Y67.696 E3.6557
G1 X150.204 Y67.491 E3.6773
G1 X150.425 Y67.400 E3.6952
G1 X162.251 Y67.400 E4.5802
G1 X162.471 Y67.491 E4.5981
G1 X166.741 Y71.761 E5.0499
G1 X166.832 Y71.981 E5.0678
G1 X166.832 Y128.019 E9.2614
G1 X166.741 Y128.239 E9.2792
G1 X162.471 Y132.509 E9.7310
G1 X162.251 Y132.600 E9.7489
G1 X150.425 Y132.600 E10.6339
G1 X150.204 Y132.509 E10.6518
G1 X150.000 Y132.304 E10.6734
G1 X149.796 Y132.509 E10.6950
G1 X149.575 Y132.600 E10.7129
G1 X137.749 Y132.600 E11.5979
G1 X137.529 Y132.509 E11.6157
G1 X135.753 Y130.733 E11.8037
G1 X133.976 Y132.509 E11.9917
G1 X133.756 Y132.600 E12.0095
G1 X121.918 Y132.600 E12.8954
G1 X121.697 Y132.509 E12.9133
G1 X121.497 Y132.309 E12.9345
G1 X121.297 Y132.509 E12.9557
G1 X121.077 Y132.600 E12.9735
G1 X109.239 Y132.600 E13.8594
G1 X109.018 Y132.509 E13.8773
G1 X104.749 Y128.239 E14.3291
G1 X104.658 Y128.019 E14.3470
G1 X104.658 Y71.981 E18.5406
G1 X104.749 Y71.761 E18.5584
G92 E0
G1 E-1.0000 F1800
G1 X105.088 Y71.987 F4800
G1 E0.0000 F1800
G92 E0
G1 X109.245 Y67.830 E0.4399 F1800
G1 X109.318 Y67.800 E0.4459
G1 X120.997 Y67.800 E1.3199
G1 X121.071 Y67.830 E1.3258
G1 X121.497 Y68.257 E1.3710
G1 X121.924 Y67.830 E1.4161
G1 X121.998 Y67.800 E1.4221
G1 X133.676 Y67.800 E2.2961
G1 X133.750 Y67.830 E2.3020
G1 X135.753 Y69.833 E2.5140
G1 X137.755 Y67.830 E2.7259
G1 X137.829 Y67.800 E2.7319
G1 X149.496 Y67.800 E3.6050
G1 X149.569 Y67.830 E3.6109
G1 X150.000 Y68.261 E3.6565
G1 X150.431 Y67.830 E3.7021
G1 X150.504 Y67.800 E3.7081
G1 X162.171 Y67.800 E4.5812
G1 X162.245 Y67.830 E4.5871
G1 X166.402 Y71.987 E5.0271
G1 X166.432 Y72.061 E5.0330
G1 X166.432 Y127.939 E9.2147
G1 X166.402 Y128.013 E9.2206
G1 X162.245 Y132.170 E9.6606
G1 X162.171 Y132.200 E9.6665
G1 X150.504 Y132.200 E10.5396
G1 X150.431 Y132.170 E10.5456
G1 X150.000 Y131.739 E10.5912
G1 X149.569 Y132.170 E10.6368
G1 X149.496 Y132.200 E10.6427
G1 X137.829 Y132.200 E11.5158
G1 X137.755 Y132.170 E11.5218
G1 X135.753 Y130.167 E11.7337
G1 X133.750 Y132.170 E11.9457
G1 X133.676 Y132.200 E11.9516
G1 X121.998 Y132.200 E12.8256
G1 X121.924 Y132.170 E12.8316
G1 X121.497 Y131.743 E12.8767
G1 X121.071 Y132.170 E12.9219
G1 X120.997 Y132.200 E12.9278
G1 X109.318 Y132.200 E13.8018
G1 X109.245 Y132.170 E13.8078
G1 X105.088 Y128.013 E14.2477
G1 X105.058 Y127.939 E14.2537
G1 X105.058 Y72.061 E18.4353
G1 X105.088 Y71.987 E18.4413
G92 E0
G1 E-1.0000 F1800
; tool H0.500 W0.800
; raft
G1 X109.658 Y73.923 F4800
G1 E0.0000 F1800
G92 E0
G1 X111.181 Y72.400 E0.3224 F450
G1 X119.135 Y72.400 E1.5129
G1 X119.915 Y73.180 E1.6780
G1 X123.080 Y73.180 E2.1517
G1 X123.860 Y72.400 E2.3168
G1 X131.814 Y72.400 E3.5073
G1 X133.337 Y73.923 E3.8297
G1 X133.337 Y126.077 E11.6356
G1 X131.814 Y127.600 E11.9579
G1 X123.860 Y127.600 E13.1485
G1 X123.080 Y126.820 E13.3136
G1 X119.915 Y126.820 E13.7873
G1 X119.135 Y127.600 E13.9524
G1 X111.181 Y127.600 E15.1429
G1 X109.658 Y126.077 E15.4652
G1 X109.658 Y73.923 E23.2711
G92 E0
G1 E-1.0000 F1800
G1 X138.168 Y73.923 F4800
G1 E0.0000 F1800
G92 E0
G1 X139.691 Y72.400 E0.3224 F450
G1 X147.633 Y72.400 E1.5111
G1 X148.413 Y73.180 E1.6762
G1 X151.587 Y73.180 E2.1512
G1 X152.367 Y72.400 E2.3163
G1 X160.309 Y72.400 E3.5050
G1 X161.832 Y73.923 E3.8274
G1 X161.832 Y126.077 E11.6333
G1 X160.309 Y127.600 E11.9556
G1 X152.367 Y127.600 E13.1444
G1 X151.587 Y126.820 E13.3095
G1 X148.413 Y126.820 E13.7844
G1 X147.633 Y127.600 E13.9495
G1 X139.691 Y127.600 E15.1382
G1 X138.168 Y126.077 E15.4606
G1 X138.168 Y73.923 E23.2665
G92 E0
G1 E-1.0000 F1800
G1 X138.968 Y74.857 F4800
G1 E0.0000 F1800
G92 E0
G1 X161.032 Y74.857 E3.3023 F450
G1 X161.032 Y77.143 E3.6444
G1 X138.968 Y77.143 E6.9468
G1 X138.968 Y79.429 E7.2889
G1 X161.032 Y79.429 E10.5912
G1 X161.032 Y81.714 E10.9333
G1 X138.968 Y81.714 E14.2356
G1 X138.968 Y84.000 E14.5777
G1 X161.032 Y84.000 E17.8801
G1 X161.032 Y86.286 E18.2222
G1 X138.968 Y86.286 E21.5245
G1 X138.968 Y88.571 E21.8666
G1 X161.032 Y88.571 E25.1689
G1 X161.032 Y90.857 E25.5110
G1 X138.968 Y90.857 E28.8134
G1 X138.968 Y93.143 E29.1555
G1 X161.032 Y93.143 E32.4578
G1 X161.032 Y95.429 E32.7999
G1 X138.968 Y95.429 E36.1022
G1 X138.968 Y97.714 E36.4443
G1 X161.032 Y97.714 E39.7466
G1 X161.032 Y100.000 E40.0888
G1 X138.968 Y100.000 E43.3911
G1 X138.968 Y102.286 E43.7332
G1 X161.032 Y102.286 E47.0355
G1 X161.032 Y104.571 E47.3776
G1 X138.968 Y104.571 E50.6799
G1 X138.968 Y106.857 E51.0220
G1 X161.032 Y106.857 E54.3244
G1 X161.032 Y109.143 E54.6665
G1 X138.968 Y109.143 E57.9688
G1 X138.968 Y111.429 E58.3109
G1 X161.032 Y111.429 E61.6132
G1 X161.032 Y113.714 E61.9553
G1 X138.968 Y113.714 E65.2577
G1 X138.968 Y116.000 E65.5998
G1 X161.032 Y116.000 E68.9021
G1 X161.032 Y118.286 E69.2442
G1 X138.968 Y118.286 E72.5465
G1 X138.968 Y120.571 E72.8886
G1 X161.032 Y120.571 E76.1910
G1 X161.032 Y122.857 E76.5331
G1 X138.968 Y122.857 E79.8354
G1 X138.968 Y125.143 E80.1775
G1 X161.032 Y125.143 E83.4798
G92 E0
G1 E-1.0000 F1800
G1 X132.537 Y125.143 F4800
G1 E0.0000 F1800
G92 E0
G1 X110.458 Y125.143 E3.3046 F450
G1 X110.458 Y122.857 E3.6467
G1 X132.537 Y122.857 E6.9514
G1 X132.537 Y120.571 E7.2935
G1 X110.458 Y120.571 E10.5981
G1 X110.458 Y118.286 E10.9402
G1 X132.537 Y118.286 E14.2448
G1 X132.537 Y116.000 E14.5869
G1 X110.458 Y116.000 E17.8916
G1 X110.458 Y113.714 E18.2337
G1 X132.537 Y113.714 E21.5383
G1 X132.537 Y111.429 E21.8804
G1 X110.458 Y111.429 E25.1851
G1 X110.458 Y109.143 E25.5272
G1 X132.537 Y109.143 E28.8318
G1 X132.537 Y106.857 E29.1739
G1 X110.458 Y106.857 E32.4785
G1 X110.458 Y104.571 E32.8206
G1 X132.537 Y104.571 E36.1253
G1 X132.537 Y102.286 E36.4674
G1 X110.458 Y102.286 E39.7720
G1 X110.458 Y100.000 E40.1141
G1 X132.537 Y100.000 E43.4187
G1 X132.537 Y97.714 E43.7608
G1 X110.458 Y97.714 E47.0655
G1 X110.458 Y95.429 E47.4076
G1 X132.537 Y95.429 E50.7122
G1 X132.537 Y93.143 E51.0543
G1 X110.458 Y93.143 E54.3590
G1 X110.458 Y90.857 E54.7011
G1 X132.537 Y90.857 E58.0057
G1 X132.537 Y88.571 E58.3478
G1 X110.458 Y88.571 E61.6524
G1 X110.458 Y86.286 E61.9945
G1 X132.537 Y86.286 E65.2992
G1 X132.537 Y84.000 E65.6413
G1 X110.458 Y84.000 E68.9459
G1 X110.458 Y81.714 E69.2880
G1 X132.537 Y81.714 E72.5926
G1 X132.537 Y79.429 E72.9347
G1 X110.458 Y79.429 E76.2394
G1 X110.458 Y77.143 E76.5815
G1 X132.537 Y77.143 E79.8861
G1 X132.537 Y74.857 E80.2282
G1 X110.458 Y74.857 E83.5328
G92 E0
G1 E-1.0000 F1800
; layer 2, Z = 0.950
M106 S255
G1 X109.658 Y73.923 F4800
G1 Z0.950 F1000
G1 E0.0000 F1800
G92 E0
G1 X111.181 Y72.400 E0.3224 F900
G1 X119.135 Y72.400 E1.5129
G1 X119.915 Y73.180 E1.6780
G1 X123.080 Y73.180 E2.1517
G1 X123.860 Y72.400 E2.3168
G1 X131.814 Y72.400 E3.5073
G1 X133.337 Y73.923 E3.8297
G1 X133.337 Y126.077 E11.6356
G1 X131.814 Y127.600 E11.9579
G1 X123.860 Y127.600 E13.1485
G1 X123.080 Y126.820 E13.3136
G1 X119.915 Y126.820 E13.7873
G1 X119.135 Y127.600 E13.9524
G1 X111.181 Y127.600 E15.1429
G1 X109.658 Y126.077 E15.4652
G1 X109.658 Y73.923 E23.2711
G92 E0
G1 E-1.0000 F1800
G1 X138.168 Y73.923 F4800
G1 E0.0000 F1800
G92 E0
G1 X139.691 Y72.400 E0.3224 F900
G1 X147.633 Y72.400 E1.5111
G1 X148.413 Y73.180 E1.6762
G1 X151.587 Y73.180 E2.1512
G1 X152.367 Y72.400 E2.3163
G1 X160.309 Y72.400 E3.5050
G1 X161.832 Y73.923 E3.8274
G1 X161.832 Y126.077 E11.6333
G1 X160.309 Y127.600 E11.9556
G1 X152.367 Y127.600 E13.1444
G1 X151.587 Y126.820 E13.3095
G1 X148.413 Y126.820 E13.7844
G1 X147.633 Y127.600 E13.9495
G1 X139.691 Y127.600 E15.1382
G1 X138.168 Y126.077 E15.4606
G1 X138.168 Y73.923 E23.2665
G92 E0
G1 E-1.0000 F1800
G1 X138.968 Y74.857 F4800
G1 E0.0000 F1800
G92 E0
G1 X161.032 Y74.857 E3.3023 F900
G1 X161.032 Y77.143 E3.6444
G1 X138.968 Y77.143 E6.9468
G1 X138.968 Y79.429 E7.2889
G1 X161.032 Y79.429 E10.5912
G1 X161.032 Y81.714 E10.9333
G1 X138.968 Y81.714 E14.2356
G1 X138.968 Y84.000 E14.5777
G1 X161.032 Y84.000 E17.8801
G1 X161.032 Y86.286 E18.2222
G1 X138.968 Y86.286 E21.5245
G1 X138.968 Y88.571 E21.8666
G1 X161.032 Y88.571 E25.1689
G1 X161.032 Y90.857 E25.5110
G1 X138.968 Y90.857 E28.8134
G1 X138.968 Y93.143 E29.1555
G1 X161.032 Y93.143 E32.4578
G1 X161.032 Y95.429 E32.7999
G1 X138.968 Y95.429 E36.1022
G1 X138.968 Y97.714 E36.4443
G1 X161.032 Y97.714 E39.7466
G1 X161.032 Y100.000 E40.0888
G1 X138.968 Y100.000 E43.3911
G1 X138.968 Y102.286 E43.7332
G1 X161.032 Y102.286 E47.0355
G1 X161.032 Y104.571 E47.3776
G1 X138.968 Y104.571 E50.6799
G1 X138.968 Y106.857 E51.0220
G1 X161.032 Y106.857 E54.3244
G1 X161.032 Y109.143 E54.6665
G1 X138.968 Y109.143 E57.9688
G1 X138.968 Y111.429 E58.3109
G1 X161.032 Y111.429 E61.6132
G1 X161.032 Y113.714 E61.9553
G1 X138.968 Y113.714 E65.2577
G1 X138.968 Y116.000 E65.5998
G1 X161.032 Y116.000 E68.9021
G1 X161.032 Y118.286 E69.2442
G1 X138.968 Y118.286 E72.5465
G1 X138.968 Y120.571 E72.8886
G1 X161.032 Y120.571 E76.1910
G1 X161.032 Y122.857 E76.5331
G1 X138.968 Y122.857 E79.8354
G1 X138.968 Y125.143 E80.1775
G1 X161.032 Y125.143 E83.4798
G92 E0
G1 E-1.0000 F1800
G1 X132.537 Y125.143 F4800
G1 E0.0000 F1800
G92 E0
G1 X110.458 Y125.143 E3.3046 F900
G1 X110.458 Y122.857 E3.6467
G1 X132.537 Y122.857 E6.9514
G1 X132.537 Y120.571 E7.2935
G1 X110.458 Y120.571 E10.5981
G1 X110.458 Y118.286 E10.9402
G1 X132.537 Y118.286 E14.2448
G1 X132.537 Y116.000 E14.5869
G1 X110.458 Y116.000 E17.8916
G1 X110.458 Y113.714 E18.2337
G1 X132.537 Y113.714 E21.5383
G1 X132.537 Y111.429 E21.8804
G1 X110.458 Y111.429 E25.1851
G1 X110.458 Y109.143 E25.5272
G1 X132.537 Y109.143 E28.8318
G1 X132.537 Y106.857 E29.1739
G1 X110.458 Y106.857 E32.4785
G1 X110.458 Y104.571 E32.8206
G1 X132.537 Y104.571 E36.1253
G1 X132.537 Y102.286 E36.4674
G1 X110.458 Y102.286 E39.7720
G1 X110.458 Y100.000 E40.1141
G1 X132.537 Y100.000 E43.4187
G1 X132.537 Y97.714 E43.7608
G1 X110.458 Y97.714 E47.0655
G1 X110.458 Y95.429 E47.4076
G1 X132.537 Y95.429 E50.7122
G1 X132.537 Y93.143 E51.0543
G1 X110.458 Y93.143 E54.3590
G1 X110.458 Y90.857 E54.7011
G1 X132.537 Y90.857 E58.0057
G1 X132.537 Y88.571 E58.3478
G1 X110.458 Y88.571 E61.6524
G1 X110.458 Y86.286 E61.9945
G1 X132.537 Y86.286 E65.2992
